!!!!SEGMENT: pl-wnifc--3125-n--001-006_wieniawski-jozef--24-etudes-24me-etude.krn
!!!cenid: 18xx:3850
!!!COM: Wieniawski, Józef
!!!COM-rismID: pe137276
!!!CDT: 1837/05/23-1912/11/11
!!!CNT: Polish
!!!GTL: 24 Études
!!!OTL: 24me Etude
!!!OMV: 006
!!!PDT:
!!!AGN:
!!!SMS-siglum: PL-Wnifc
!!!SMS-shelfmark: 3125/n
!!!SMS-shelfwork: 001-006 G
!!!SMS-variant:
!!!SMS-altvar:
!!!NIFC-rismSourceID: 1001142383
!!!NIFC-rismChildID: 1001142390
!!!NIFC-islandoraID: nifc:212194
!!!URL-pdf-islandora: https://repozytorium.nifc.pl/islandora/object/nifc%3A212194/datastream/PDF/view
!!!URL-scan: https://polish.musicsources.pl/pl/lokalizacje/galeria/druki-muzyczne/16832 @EN{Scan on Polish Music Sources Website} @PL{Skany w portalu Dziedzictwo Muzyki Polskiej w otwartym dostępie}
!!!IIIF:
!!!ONB-nifc: UWAGA: w zbiorze znajdują się Etiudy od nr 19-24 (pliki 001-006).
!!!AIN: 2 piano
!!!key: d
**kern	**fing	**dynam	**kern	**fing	**dynam
*part2	*part2	*part2	*part1	*part1	*part1
*staff2	*	*	*staff1	*	*
*I"Piano	*	*	*I"Piano	*	*
*I'Pf	*	*	*I'Pf	*	*
*clefF4	*	*	*clefF4	*	*
*Ipiano	*	*	*Ipiano	*	*
*ICklav	*	*	*ICklav	*	*
*k[b-]	*	*	*k[b-]	*	*
*d:	*	*	*d:	*	*
*M2/4	*	*	*M2/4	*	*
!	!	!	!LO:TX:a:B:t=Prestissimo, misterioso.	!	!
*	*	*	*Xtuplet	*	*
*ped	*below	*	*	*	*
8r>	.	.	(8AA</	.	.
.	3	.	.	.	.
=1	=1	=1	=1	=1	=1
*Xped	*	*	*	*	*
2ryy	.	.	24D<'/LL)	.	p
.	1	.	24D\	.	.
.	.	.	24d\JJ	.	.
.	1	.	24C<'/LL	.	.
.	.	.	24D\	.	.
.	.	.	24d\JJ	.	.
.	3	.	24AA<'/LL	.	.
.	.	.	24D\	.	.
.	.	.	24d\JJ	.	.
.	1	.	24C<'/LL	.	.
.	.	.	24D\	.	.
.	.	.	24d\JJ	.	.
=2	=2	=2	=2	=2	=2
2ryy	.	.	24BB<-'/LL	.	.
.	2	.	24D\	.	.
.	.	.	24d\JJ	.	.
.	3	.	24GG<'/LL	.	.
.	.	.	24D\	.	.
.	.	.	24d\JJ	.	.
!	!	!	!LO:TX:a:t=dédiée à Monsieur BERNHARD STAVENHAGEN.	!	!
!	!	!	!LO:TX:a:t=24me Etude	!	!
.	2	.	24BB<-'/LL	.	.
.	.	.	24D\	.	.
.	.	.	24d\JJ	.	.
.	1	.	24AA<'/LL	.	.
.	.	.	24D\	.	.
.	.	.	24d\JJ	.	.
=3	=3	=3	=3	=3	=3
2ryy	.	.	24DD<'/LL	.	.
.	5	.	24D\	4	.
.	.	.	24A\JJ	5	.
.	3	.	24FF<'/LL	.	.
.	.	.	24F\	3	.
.	.	.	24A\JJ	.	.
.	4	.	24EE<'/LL	.	.
.	.	.	24E\	2	.
.	.	.	24A\JJ	.	.
.	1	.	24AA<'/LL	.	.
.	.	.	24E\	.	.
.	.	.	24A\JJ	.	.
=4	=4	=4	=4	=4	=4
2ryy	.	.	24FF<'/LL	.	.
.	1	.	24F\	4	.
.	.	.	24A\JJ	.	.
.	3	.	24DD<'/LL	.	.
.	.	.	24D\	2	.
.	.	.	24A\JJ	.	.
*ped	*	*	*	*	*
.	5	.	24AAA<'/LL	.	.
.	.	.	24AA\	.	.
.	.	.	24A\JJ	.	.
.	1	.	24AA<'/LL	.	.
.	.	.	24AA\	.	.
.	.	.	24A\JJ	.	.
!LO:LB:g=original	!	!	!LO:LB:g=original	!	!
=5	=5	=5	=5	=5	=5
*Xped	*	*	*	*	*
2ryy	.	.	24D<'/LL	.	.
*ped	*	*	*	*	*
.	1	.	24D\	.	.
.	.	.	24d\JJ	.	.
.	1	.	24C<'/LL	.	.
.	.	.	24D\	.	.
.	.	.	24d\JJ	.	.
.	3	.	24AA<'/LL	.	.
.	.	.	24D\	.	.
.	.	.	24d\JJ	.	.
.	1	.	24C<'/LL	.	.
.	.	.	24D\	.	.
.	.	.	24d\JJ	.	.
=6	=6	=6	=6	=6	=6
2ryy	.	.	24BB<-'/LL	.	.
.	2	.	24D\	.	.
.	.	.	24d\JJ	.	.
.	.	.	24GG<'/LL	.	.
.	.	.	24D\	.	.
.	.	.	24d\JJ	.	.
.	.	.	24BB-<'/LL	.	.
.	.	.	24D\	.	.
.	.	.	24d\JJ	.	.
.	1	.	24AA<'/LL	.	.
.	.	.	24D\	.	.
.	.	.	24d\JJ	.	.
=7	=7	=7	=7	=7	=7
2ryy	.	.	24DD<'/LL	.	.
.	5	.	24D\	4	.
.	.	.	24A\JJ	5	.
.	3	.	24FF<'/LL	.	.
.	.	.	24F\	3	.
.	.	.	24A\JJ	.	.
.	1	.	24AA<'/LL	.	.
.	.	.	24E\	2	.
.	.	.	24A\JJ	.	.
.	4	.	24EE<'/LL	.	.
.	.	.	24E\	.	.
.	.	.	24A\JJ	.	.
=8	=8	=8	=8	=8	=8
2ryy	.	.	24FF<'/LL	.	.
.	1	.	24F\	4	.
.	.	.	24A\JJ	.	.
.	3	.	24DD<'/LL	.	.
.	.	.	24D\	2	.
.	.	.	24A\JJ	.	.
.	5	.	24AAA<'/LL	.	.
.	.	.	24AA\	.	.
.	.	.	24A\JJ	.	.
.	1	.	24AA<'/LL	.	.
.	.	.	24AA\	.	.
.	.	.	24A\JJ	.	.
!LO:LB:g=original	!	!	!LO:LB:g=original	!	!
=9	=9	=9	=9	=9	=9
*ped	*	*	*	*	*
(8GG\L	1	.	24GG<^/LL	.	.
.	.	.	24C#X\	2	.
.	.	.	24A\JJ	5	.
8EE'\J)	3	.	24EE</LL	.	.
.	.	.	24C#\	.	.
.	.	.	24A\JJ	.	.
*Xped	*	*	*	*	*
(8FF\L	1	.	24FF</LL	.	.
.	.	.	24D\	1	.
.	.	.	24A\JJ	5	.
8DD'\J)	3	.	24DD</LL	.	.
.	.	.	24D\	.	.
.	.	.	24A\JJ	.	.
=10	=10	=10	=10	=10	=10
2ryy	.	.	24CC#X<'/LL	.	.
.	4	.	24E\	3	.
.	.	.	24A\JJ	5	.
.	2	.	24EE<'/LL	.	.
.	.	.	24E\	.	.
.	.	.	24A\JJ	.	.
.	5	.	24AAA<'/LL	.	.
.	.	.	24AA\	.	.
.	.	.	24A\JJ	.	.
.	1	.	24AA<'/LL	.	.
.	.	.	24AA\	.	.
.	.	.	24A\JJ	.	.
!LO:LB:g=original	!	!	!LO:LB:g=original	!	!
=11	=11	=11	=11	=11	=11
*ped	*	*	*	*	*
(8GG\L	1	.	24GG<^/LL	.	.
.	.	.	24C#X\	2	.
.	.	.	24A\JJ	5	.
8EE'\J)	3	.	24EE</LL	.	.
.	.	.	24C#\	.	.
.	.	.	24A\JJ	.	.
*Xped	*	*	*	*	*
(8FF\L	1	.	24FF</LL	.	.
.	.	.	24D\	1	.
.	.	.	24A\JJ	5	.
8DD'\J)	3	.	24DD</LL	.	.
.	.	.	24D\	.	.
.	.	.	24A\JJ	.	.
=12	=12	=12	=12	=12	=12
2ryy	.	.	24CC#X<'/LL	.	.
.	.	.	24E\	2	.
.	.	.	24A\JJ	5	.
.	.	.	24EE<'/LL	.	.
.	.	.	24E\	.	.
.	.	.	24A\JJ	.	.
.	.	.	24AAA<'/LL	.	.
.	.	.	24AA\	.	.
.	.	.	24A\JJ	.	.
.	.	.	24AA<'/LL	.	.
.	.	.	24AA\	.	.
.	.	.	24A\JJ	.	.
!LO:LB:g=original	!	!	!LO:LB:g=original	!	!
=13	=13	=13	=13	=13	=13
2ryy	.	.	24DD<'/LL	.	.
.	5	.	24D\	.	.
.	.	.	24d\JJ	.	.
.	4	.	24EE<'/LL	.	.
.	.	.	24D\	.	.
.	.	.	24d\JJ	.	.
.	3	.	24FF<'/LL	.	.
.	.	.	24D\	.	.
.	.	.	24d\JJ	.	.
.	1	.	24GG<'/LL	.	.
.	.	.	24D\	.	.
.	.	.	24d\JJ	.	.
=14	=14	=14	=14	=14	=14
*ped	*	*	*	*	*
4.AA-X^\	3	.	24AA-X</LL	.	.
.	.	.	24D\	.	.
.	.	.	24d\JJ	.	.
.	.	.	24D</LL	.	.
.	.	.	24D\	.	.
.	.	.	24d\JJ	.	.
*Xped	*	*	*	*	*
.	.	.	24D</LL	.	.
.	.	.	24D\	.	.
.	.	.	24d\JJ	.	.
8GG\	4	.	24GG</LL	.	.
.	.	.	24D\	.	.
.	.	.	24d\JJ	.	.
=15	=15	=15	=15	=15	=15
2ryy	.	.	24FF#X<'/LL	.	.
.	5	.	24D\	.	.
.	.	.	24d\JJ	.	.
.	4	.	24GG<'/LL	.	.
.	.	.	24D\	.	.
.	.	.	24d\JJ	.	.
.	3	.	24GG#X<'/LL	.	.
.	.	.	24D\	.	.
.	.	.	24d\JJ	.	.
.	1	.	24AAn<'/LL	.	.
.	.	.	24D\	.	.
.	.	.	24d\JJ	.	.
=16	=16	=16	=16	=16	=16
*ped	*	*	*	*	*
4.BB-^\	3	.	24BB<-/LL	.	.
.	.	.	24D\	.	.
.	.	.	24d\JJ	.	.
.	.	.	24D</LL	.	.
.	.	.	24D\	.	.
.	.	.	24d\JJ	.	.
.	.	.	24D</LL	.	.
.	.	.	24D\	.	.
.	.	.	24d\JJ	.	.
*Xped	*	*	*	*	*
8AA\	4	.	24AA</LL	.	.
.	.	.	24D\	.	.
.	.	.	24d\JJ	.	.
!LO:LB:g=original	!	!	!LO:LB:g=original	!	!
=17	=17	=17	=17	=17	=17
*ped	*	*	*	*	*
2ryy	.	<	24GG#X<'/LL	.	.
.	5	.	24D\	.	.
.	.	.	24d\JJ	.	.
.	4	.	24AA<'/LL	.	.
.	.	.	24D\	.	.
.	.	.	24d\JJ	.	.
.	3	.	24BB-<'/LL	.	.
.	.	.	24D\	.	.
.	.	.	24d\JJ	.	.
.	2	[[	24BBn<'/LL	.	.
.	.	.	24D\	.	.
.	.	.	24d\JJ	.	.
=18	=18	=18	=18	=18	=18
*Xped	*	*	*	*	*
2ryy	.	.	24C<'^/LL	.	.
.	1	.	24D\	.	.
.	.	.	24d\JJ	.	.
.	3	.	24AA<'/LL	.	.
.	.	.	24E-X\	.	.
.	.	.	24e-X\JJ	.	.
.	2	.	24BB-X<'/LL	.	.
.	.	.	24E-\	.	.
.	.	.	24e-\JJ	.	.
.	3	.	24GG<'/LL	.	.
.	.	.	24E-\	.	.
.	.	.	24e-\JJ	.	.
=19	=19	=19	=19	=19	=19
2ryy	.	.	24FF#X<'/LL	.	.
.	4	.	24E-X\	.	.
.	.	.	24e-X\JJ	.	.
.	2	.	24AA<'/LL	.	.
.	.	.	24D\	.	.
.	.	.	24d\JJ	.	.
*ped	*	*	*	*	*
.	.	.	24DD<'/LL	.	.
.	.	.	24D\	.	.
.	.	.	24d\JJ	.	.
.	1	.	24D<'/LL	.	.
.	.	.	24D\	.	.
.	.	.	24d\JJ	.	.
=20	=20	=20	=20	=20	=20
*Xped	*	*	*	*	*
2ryy	.	.	24C<'^/LL	.	.
.	1	.	24D\	.	.
.	.	.	24d\JJ	.	.
.	3	.	24AA<'/LL	.	.
.	.	.	24E-X\	.	.
.	.	.	24e-X\JJ	.	.
.	2	.	24BB-<'/LL	.	.
.	.	.	24E-\	.	.
.	.	.	24e-\JJ	.	.
.	4	.	24GG<'/LL	.	.
.	.	.	24E-\	.	.
.	.	.	24e-\JJ	.	.
!LO:PB:g=original	!	!	!LO:PB:g=original	!	!
=21	=21	=21	=21	=21	=21
2ryy	.	.	24D<'^/LL	.	.
.	1	.	24E-X\	.	.
.	.	.	24e-X\JJ	.	.
.	.	.	24BB-<'/LL	.	.
.	.	.	24En\	.	.
.	.	.	24en\JJ	.	.
.	.	.	24BBn<'/LL	.	.
.	.	.	24E\	.	.
.	.	.	24e\JJ	.	.
.	4	.	24GG#X<'/LL	.	.
.	.	.	24E\	.	.
.	.	.	24e\JJ	.	.
=22	=22	=22	=22	=22	=22
2ryy	.	.	24E-X<'^/LL	.	.
.	1	.	24En\	.	.
.	.	.	24e\JJ	.	.
.	.	.	24AA<'/LL	.	.
.	.	.	24F\	.	.
.	.	.	24f\JJ	.	.
.	1	.	24D<'^/LL	.	.
.	.	.	24F\	.	.
.	.	.	24f\JJ	.	.
.	.	.	24C#X<'/LL	.	.
.	.	.	24F#X\	.	.
.	.	.	24f#X\JJ	.	.
=23	=23	=23	=23	=23	=23
*	*	*	*	*	*above
2ryy	.	.	24Cn<'^/LL	.	<
.	1	.	24F#X\	.	.
.	.	.	24f#X\JJ	.	.
.	.	.	24BBn<'/LL	.	.
.	.	.	24G\	.	.
.	.	.	24g\JJ	.	.
.	1	.	24BB-X<'^/LL	.	.
.	.	.	24G\	.	.
.	.	.	24g\JJ	.	.
.	.	.	24AA<'/LL	.	.
.	.	.	24B-\	.	.
.	.	.	24b-\JJ	.	.
=24	=24	=24	=24	=24	=24
2ryy	.	.	24AA-X<'^/LL	.	.
.	.	.	24B-\	.	.
.	.	.	24b-\JJ	.	.
.	1	.	24GG<'/LL	.	.
.	.	.	24BB-\	.	.
.	.	.	24B-\JJ	.	.
.	.	.	24EE-X<'/LL	.	.
.	.	.	24BB-\	.	.
.	.	.	24B-\JJ	.	.
.	.	.	24BBB-<'/LL	.	.
.	.	.	24D\	.	.
.	.	.	24d\JJ	.	.
!LO:LB:g=original	!	!	!LO:LB:g=original	!	!
=25	=25	=25	=25	=25	=25
2ryy	.	.	24EE-X<'/LL	.	.
.	2	.	24E-X\	.	.
.	.	.	24e-X\JJ	.	.
.	.	.	24DD<'/LL	.	.
.	.	.	24G\	.	.
.	.	.	24g\JJ	.	.
.	4	.	24CC#X<'/LL	.	.
.	.	.	24En\	.	.
.	.	.	24en\JJ	.	.
.	.	.	24AAAn<'/LL 24AAn<	.	.
*	*	*	*clefG2	*	*
.	.	.	24A\	.	.
.	.	.	24a\JJ	.	.
=26	=26	=26	=26	=26	=26
*ped	*	*	*	*	*
[2DD\	.	.	24AA<^/LL 24D<	.	.
.	.	.	24A\ 24d	.	.
.	.	.	24a\JJ	.	.
.	.	.	24Cn</LL	.	.
.	.	.	24c\	.	.
.	.	.	24a\JJ	.	.
.	.	.	24AA</LL	.	.
.	.	.	24A\	.	.
.	.	.	24a\JJ	.	.
.	.	.	24C</LL	.	.
.	.	.	24c\	.	.
.	.	.	24a\JJ	.	.
=27	=27	=27	=27	=27	=27
*Xped	*	*	*	*	*
2DD\]	.	.	24BB-</LL	.	.
.	.	.	24B-\	.	.
.	.	.	24a\JJ	.	.
.	.	.	24GG</LL	.	.
.	.	.	24G\	.	.
.	.	.	24a\JJ	.	.
.	.	.	24BB-</LL	.	.
.	.	.	24B-\	.	.
.	.	.	24a\JJ	.	.
.	1	.	24AA</LL	.	.
.	.	.	24A\	.	.
.	.	.	24a\JJ	.	.
=28	=28	=28	=28	=28	=28
*ped	*	*	*	*	*
2ryy	.	.	24DDD<'/LL 24DD<	.	.
.	.	.	24A\ 24d	.	.
.	.	.	24a\JJ	.	.
.	.	.	24FFF<'/LL 24FF<	.	.
.	.	.	24A\ 24f	4	.
.	.	.	24a\JJ	.	.
.	.	.	24EEE<'/LL 24EE<	.	.
.	.	.	24A\ 24e	3	.
.	.	.	24a\JJ	.	.
.	.	.	24AAA<'/LL 24AA<	.	.
.	.	.	24A\	.	.
.	.	.	24a\JJ	.	.
!LO:LB:g=original	!	!	!LO:LB:g=original	!	!
=29	=29	=29	=29	=29	=29
*Xped	*	*	*	*	*
2ryy	.	.	24FFF<'/LL 24FF<	.	.
.	.	.	24A\ 24f	.	.
.	.	.	24a\JJ	.	.
.	.	.	24DDD<'/LL 24DD<	.	.
.	.	.	24A\ 24d	.	.
.	.	.	24a\JJ	.	.
.	.	.	24AAAA<'/LL 24AAA<	.	.
.	.	.	24A\	.	.
.	.	.	24a\JJ	.	.
.	.	.	24AAA<'/LL 24AA<	.	.
.	.	.	24A\	.	.
.	.	.	24a\JJ	.	.
=30	=30	=30	=30	=30	=30
*ped	*	*	*	*	*
[2DD\	.	.	24AA<^/LL 24D<	.	.
.	.	.	24A\ 24d	.	.
.	.	.	24a\JJ	.	.
.	.	.	24C</LL	.	.
.	.	.	24c\	.	.
.	.	.	24a\JJ	.	.
.	.	.	24AA</LL	.	.
.	.	.	24A\	.	.
.	.	.	24a\JJ	.	.
.	.	.	24C</LL	.	.
.	.	.	24c\	.	.
.	.	.	24a\JJ	.	.
=31	=31	=31	=31	=31	=31
*Xped	*	*	*	*	*
2DD\]	.	.	24BB-</LL	.	.
.	.	.	24B-\	.	.
.	.	.	24a\JJ	.	.
.	.	.	24GG</LL	.	.
.	.	.	24G\	.	.
.	.	.	24a\JJ	.	.
.	.	.	24BB-</LL	.	.
.	.	.	24B-\	.	.
.	.	.	24a\JJ	.	.
.	.	.	24AA</LL	.	.
.	.	.	24A\	.	.
.	.	.	24a\JJ	.	.
=32	=32	=32	=32	=32	=32
*ped	*	*	*	*	*
2ryy	.	.	24DDD<'/LL 24DD<	.	.
.	.	.	24A\ 24d	.	.
.	.	.	24a\JJ	.	.
.	.	.	24FFF<'/LL 24FF<	.	.
.	.	.	24A\ 24f	4	.
.	.	.	24a\JJ	.	.
.	.	.	24AAA<'/LL 24AA<	.	.
.	.	.	24A\	.	.
.	.	.	24a\JJ	.	.
.	.	.	24EEE<'/LL 24EE<	.	.
.	.	.	24A\ 24e	.	.
.	.	.	24a\JJ	.	.
!LO:LB:g=original	!	!	!LO:LB:g=original	!	!
=33	=33	=33	=33	=33	=33
*Xped	*	*	*	*	*
2ryy	.	.	24FFF<'/LL 24FF<	.	.
.	.	.	24A\ 24f	.	.
.	.	.	24a\JJ	.	.
.	.	.	24DDD<'/LL 24DD<	.	.
.	.	.	24A\ 24d	.	.
.	.	.	24a\JJ	.	.
.	.	.	24AAAA<'/LL 24AAA<	.	.
.	.	.	24A\	.	.
.	.	.	24a\JJ	.	.
.	.	.	24AAA<'/LL 24AA<	.	.
.	.	.	24A\	.	.
.	.	.	24a\JJ	.	.
=34	=34	=34	=34	=34	=34
*ped	*	*	*	*	*
2ryy	.	.	24GGG<'/LL 24GG<	.	.
!	!	!	!	!	!LO:DY:a
.	.	.	24c#X\ 24a	.	f
.	.	.	24cc#X\JJ	.	.
.	.	.	24EEE<'/LL 24EE<	.	.
.	.	.	24c#\ 24a	.	.
.	.	.	24cc#\JJ	.	.
.	.	.	24FFF<'/LL 24FF<	.	.
.	.	.	24d\ 24a	.	.
.	.	.	24dd\JJ	.	.
.	.	.	24DDD<'/LL 24DD<	.	.
.	.	.	24d\ 24a	.	.
.	.	.	24dd\JJ	.	.
=35	=35	=35	=35	=35	=35
2ryy	.	.	24CCC#X<'/LL 24CC#X<	.	.
.	.	.	24e^\ 24a	.	.
.	.	.	24ee\JJ	.	.
.	.	.	24EEE<'/LL 24EE<	.	.
.	.	.	24e\ 24a	.	.
.	.	.	24ee\JJ	.	.
*Xped	*	*	*	*	*
.	.	.	24AAAA<'/LL 24AAA<	.	.
.	.	.	24A\	.	.
.	.	.	24a\JJ	.	.
.	.	.	24AAA<'/LL 24AA<	.	.
.	.	.	24A\	.	.
.	.	.	24a\JJ	.	.
=36	=36	=36	=36	=36	=36
*ped	*	*	*	*	*
2ryy	.	.	24GGG<'/LL 24GG<	.	.
.	.	.	24c#X\ 24a	.	.
.	.	.	24cc#X\JJ	.	.
.	.	.	24EEE<'/LL 24EE<	.	.
.	.	.	24c#\ 24a	.	.
.	.	.	24cc#\JJ	.	.
.	.	.	24FFF<'/LL 24FF<	.	.
.	.	.	24d\ 24a	.	.
.	.	.	24dd\JJ	.	.
.	.	.	24DDD<'/LL 24DD<	.	.
.	.	.	24d\ 24a	.	.
.	.	.	24dd\JJ	.	.
!LO:LB:g=original	!	!	!LO:LB:g=original	!	!
=37	=37	=37	=37	=37	=37
2ryy	.	.	24CCC#X<'/LL 24CC#X<	.	.
.	.	.	24g^\ 24a	11	.
.	.	.	24gg\JJ	.	.
.	.	.	24EEE<'/LL 24EE<	.	.
.	.	.	24g\ 24a	.	.
.	.	.	24gg\JJ	.	.
.	.	.	24AAAA<'/LL 24AAA<	.	.
.	.	.	24g\ 24a	.	.
.	.	.	24gg\JJ	.	.
.	.	.	24CCC#<'/LL 24CC#<	.	.
.	.	.	24g\ 24a	.	.
.	.	.	24gg\JJ	.	.
*Xped	*	*	*	*	*
=38	=38	=38	=38	=38	=38
2ryy	.	.	24DDD</LL 24DD<	.	.
.	.	.	24f#X\ 24a	.	.
.	.	.	24ff#X\JJ	.	.
.	.	.	24EEE</LL 24EE<	.	.
.	.	.	24f#\ 24a	.	.
.	.	.	24ff#\JJ	.	.
.	.	.	24FFF#X</LL 24FF#X<	.	.
.	.	.	24f#\ 24a	.	.
.	.	.	24ff#\JJ	.	.
.	.	.	24GGG</LL 24GG<	.	.
.	.	.	24f#\ 24a	.	.
.	.	.	24ff#\JJ	.	.
=39	=39	=39	=39	=39	=39
*ped	*	*	*	*	*
2ryy	.	.	24AAA-X<^/LL 24AA-X<	.	.
.	.	.	24fn\ 24b-	.	.
.	.	.	24ffn\JJ	.	.
.	.	.	24D</LL	.	.
.	.	.	24f\ 24b-	.	.
.	.	.	24ff\JJ	.	.
.	.	.	24D</LL	.	.
.	.	.	24f\ 24b-	.	.
.	.	.	24ff\JJ	.	.
.	.	.	24GGG</LL 24GG<	.	.
.	.	.	24f\ 24b-	.	.
.	.	.	24ff\JJ	.	.
=40	=40	=40	=40	=40	=40
*Xped	*	*	*	*	*
2ryy	.	.	24FFF#X</LL 24FF#X<	.	.
.	.	.	24fn\ 24bn	.	.
.	.	.	24ff\JJ	.	.
.	.	.	24GGG</LL 24GG<	.	.
.	.	.	24f\ 24b	.	.
.	.	.	24ff\JJ	.	.
.	.	.	24GGG#X</LL 24GG#X<	.	.
.	.	.	24f\ 24b	.	.
.	.	.	24ff\JJ	.	.
.	.	.	24AAAn</LL 24AAn<	.	.
.	.	.	24f\ 24b	.	.
.	.	.	24ff\JJ	.	.
!LO:LB:g=original	!	!	!LO:LB:g=original	!	!
=41	=41	=41	=41	=41	=41
*ped	*	*	*	*	*
2ryy	.	.	24BBB-X<^/LL 24BB-X<	.	.
.	.	.	24e\ 24ccn	.	.
.	.	.	24ee\JJ	.	.
.	1	.	24Gn</LL	.	.
.	.	.	24e\ 24cc	.	.
.	.	.	24ee\JJ	.	.
.	1	.	24G</LL	.	.
.	.	.	24e\ 24cc	.	.
.	.	.	24ee\JJ	.	.
.	.	.	24AAA</LL 24AA<	.	.
.	.	.	24e\ 24cc	.	.
.	.	.	24ee\JJ	.	.
=42	=42	=42	=42	=42	=42
*Xped	*	*	*	*	*
2ryy	.	.	24GGG#X</LL 24GG#X<	.	.
.	.	.	24e\ 24cc#X	.	.
.	.	.	24ee\JJ	.	.
.	.	.	24AAA</LL 24AA<	.	.
.	.	.	24e\ 24cc#	.	.
.	.	.	24ee\JJ	.	.
.	.	.	24BBB-</LL 24BB-<	.	.
.	.	.	24e\ 24cc#	.	.
.	.	.	24ee\JJ	.	.
.	.	.	24BBBn</LL 24BBn<	.	.
.	.	.	24e\ 24cc#	.	.
.	.	.	24ee\JJ	.	.
=43	=43	=43	=43	=43	=43
*ped	*	*	*	*	*
2ryy	.	.	24CCn<^/LL 24Cn<	.	.
.	.	.	24d#X\ 24f#X	.	.
.	.	.	24dd#X\JJ	.	.
.	.	.	24A</LL	.	.
.	.	.	24d#\ 24f#	.	.
.	.	.	24dd#\JJ	.	.
.	.	.	24A</LL	.	.
.	.	.	24d#\ 24f#	.	.
.	.	.	24dd#\JJ	.	.
.	.	.	24BBBn</LL 24BBn<	.	.
.	.	.	24d#\ 24f#	.	.
.	.	.	24dd#\JJ	.	.
=44	=44	=44	=44	=44	=44
2ryy	.	.	24CC<^/LL 24C<	.	.
.	.	.	24e\ 24gn	.	.
.	.	.	24ee\JJ	.	.
.	1	.	24B-X</LL	.	.
.	.	.	24e\ 24g	.	.
.	.	.	24ee\JJ	.	.
.	1	.	24B-</LL	.	.
.	.	.	24e\ 24g	.	.
.	.	.	24ee\JJ	.	.
.	.	.	24BBBn</LL 24BBn<	.	.
.	.	.	24e\ 24g	.	.
.	.	.	24ee\JJ	.	.
!LO:LB:g=original	!	!	!LO:LB:g=original	!	!
=45	=45	=45	=45	=45	=45
2ryy	.	.	24CC</LL 24C<	.	.
.	.	.	24e-X\ 24f#X	.	.
.	.	.	24ee-X\JJ	.	.
.	.	.	24AAA</LL 24AA<	.	.
.	.	.	24e-\ 24f#	.	.
.	.	.	24ee-\JJ	.	.
*Xped	*	*	*	*	*
.	.	.	24BBB-X</LL 24BB-X<	.	.
.	.	.	24e-\ 24g	.	.
.	.	.	24ee-\JJ	.	.
.	.	.	24GGG</LL 24GG<	.	.
.	.	.	24e-\ 24g	.	.
.	.	.	24ee-\JJ	.	.
=46	=46	=46	=46	=46	=46
2ryy	.	.	24FFF#X</LL 24FF#X<	.	.
.	.	.	24e-X\ 24a	.	.
.	.	.	24ee-X\JJ	.	.
.	.	.	24AAA</LL 24AA<	.	.
.	.	.	24e-\ 24a	.	.
.	.	.	24ee-\JJ	.	.
*ped	*	*	*	*	*
.	.	.	24CCC<^/LL 24CC<	.	.
.	.	.	24f#X\ 24a	.	.
.	.	.	24ff#X\JJ	.	.
.	.	.	24DD</LL 24D<	.	.
.	.	.	24e-\ 24f#	.	.
.	.	.	24ee-\JJ	.	.
=47	=47	=47	=47	=47	=47
2ryy	.	.	24CC</LL 24C<	.	.
.	.	.	24e-X\ 24f#X	.	.
.	.	.	24ee-X\JJ	.	.
.	.	.	24AAA</LL 24AA<	.	.
.	.	.	24e-\ 24f#	.	.
.	.	.	24ee-\JJ	.	.
*Xped	*	*	*	*	*
.	.	.	24BBB-</LL 24BB-<	.	.
.	.	.	24e-\ 24g	.	.
.	.	.	24ee-\JJ	.	.
.	.	.	24GGG</LL 24GG<	.	.
.	.	.	24e-\ 24g	3	.
.	.	.	24ee-\JJ	.	.
=48	=48	=48	=48	=48	=48
2ryy	.	.	24FFF#X</LL 24FF#X<	.	.
.	.	.	24e-X\ 24a	.	.
.	.	.	24ee-X\JJ	.	.
.	.	.	24AAA</LL 24AA<	.	.
.	.	.	24e-\ 24cc	4	.
.	.	.	24ee-\JJ	.	.
*ped	*	*	*	*	*
.	.	.	24CCC<^/LL 24CC<	4	.
.	.	.	24a\ 24ff#X	.	.
.	.	.	24aa\JJ	.	.
.	.	.	24DD</LL 24D<	.	.
.	.	.	24e-\ 24f#X	.	.
.	.	.	24ee-\JJ	.	.
!LO:LB:g=original	!	!	!LO:LB:g=original	!	!
=49	=49	=49	=49	=49	=49
2ryy	.	.	24CC<^/LL 24C<	.	.
.	.	.	24e-X\ 24f#X	.	.
.	.	.	24ee-X\JJ	.	.
.	.	.	24AAA</LL 24AA<	.	.
.	.	.	24e-\ 24f#	.	.
.	.	.	24ee-\JJ	.	.
*Xped	*	*	*	*	*
.	.	.	24BBB-</LL 24BB-<	.	.
.	.	.	24en\ 24g	.	.
.	.	.	24een\JJ	.	.
.	.	.	24GGG</LL 24GG<	.	.
.	.	.	24e\ 24g	.	.
.	.	.	24ee\JJ	.	.
=50	=50	=50	=50	=50	=50
*ped	*	*	*	*	*
2ryy	.	.	24DD-X<^/LL 24D-X<	.	.
.	.	.	24e\ 24g	.	.
.	.	.	24ee\JJ	.	.
.	.	.	24BBB-</LL 24BB-<	.	.
.	.	.	24e\ 24g	.	.
.	.	.	24ee\JJ	.	.
*Xped	*	*	*	*	*
.	.	.	24BBBn</LL 24BBn<	.	.
.	.	.	24fn\ 24g#X	.	.
.	.	.	24ffn\JJ	.	.
.	.	.	24GGG#X</LL 24GG#X<	.	.
.	.	.	24f\ 24g#	.	.
.	.	.	24ff\JJ	.	.
=51	=51	=51	=51	=51	=51
*ped	*	*	*	*	*
2ryy	.	.	24DDn<^/LL 24Dn<	.	<
.	.	.	24f\ 24g#X	.	.
.	.	.	24ff\JJ	.	.
.	.	.	24BBBn</LL 24BBn<	.	.
.	.	.	24f\ 24g#	.	.
.	.	.	24ff\JJ	.	.
.	.	.	24EE-X<^/LL 24E-X<	.	.
.	.	.	24f#X\ 24a	.	.
.	.	.	24ff#X\JJ	.	.
.	.	.	24CC</LL 24C<	.	.
.	.	.	24f#\ 24a	.	.
.	.	.	24ff#\JJ	.	.
=52	=52	=52	=52	=52	=52
2ryy	.	.	24EEn<^/LL 24En<	.	.
.	.	.	24gn\ 24b-X	.	.
.	.	.	24gg\JJ	.	.
.	.	.	24CC#X</LL 24C#X<	.	.
.	.	.	24g\ 24b-	.	.
.	.	.	24gg\JJ	.	.
.	.	.	24FFn<^/LL 24Fn<	.	[
.	.	.	24a-X\ 24cc-X	.	.
.	.	.	24aa-X\JJ	.	.
.	.	.	24DD</LL 24D<	.	.
.	.	.	24a-\ 24cc-	.	.
*Xped	*	*	*	*	*
.	.	.	24aa-\JJ	.	.
!LO:LB:g=original	!	!	!LO:LB:g=original	!	!
=53	=53	=53	=53	=53	=53
*ped	*	*	*	*	*below
8EEE-X/ 8BBB- 8EE-X	.	.	8g\ 8b- 8ee-X 8gg	.	sf
*	*	*	*clefF4	*	*
8GGG\L	5	.	24GGG</LL	.	p
.	.	.	24GG\	.	.
.	.	.	24G\JJ	.	.
*	*	*	*	*	*above
8BBB-\	4	.	24BBB-</LL	.	<
.	.	.	24BB-\	.	.
.	.	.	24B-\JJ	.	.
8EE-\J	2	.	24EE-X</LL	.	.
.	.	.	24E-X\	.	.
.	.	.	24e-X\JJ	.	.
=54	=54	=54	=54	=54	=54
8GG\L	1	.	24GG</LL	.	.
.	.	.	24G\	.	.
.	.	.	24g\JJ	.	.
*	*	*	*clefG2	*	*
8BB-\	4	.	24BB-</LL	.	.
.	.	.	24B-\	.	.
.	.	.	24b-\JJ	.	.
8E-X\	.	.	24E-X</LL	.	.
.	.	.	24e-X\	.	.
.	.	.	24ee-X\JJ	.	.
8G\J	1	.	24G</LL	.	.
.	.	.	24g\	.	.
.	.	.	24gg\JJ	.	.
=55	=55	=55	=55	=55	=55
8B-\L	4	.	24B-</LL	.	.
.	.	.	24b-\	.	.
.	.	.	24bb-\JJ	.	.
*clefG2	*	*	*	*	*
8e-X\	.	.	24e-X</LL	.	.
.	.	.	24ee-X\	.	.
.	.	.	24eee-X\JJ	.	.
8g\	1	.	24g</LL	.	.
.	.	.	24gg\	.	.
.	.	.	24ggg\JJ	.	.
8cc\J	2	.	24cc</LL	.	.
*	*	*	*8va	*	*
.	.	.	24ccc\	.	.
.	.	.	24cccc\JJ	.	.
=56	=56	=56	=56	=56	=56
8b-\L	3	.	24bb-</LL	.	.
.	.	.	24bb-\	.	.
.	.	.	24bbb-\JJ	.	.
*	*	*	*X8va	*	*
8g\	1	.	24gg</LL	.	.
.	.	.	24gg\	.	.
.	.	.	24ggg\JJ	.	.
8e-X\	.	.	24e-X</LL	.	.
.	.	.	24ee-X\	.	.
.	.	.	24eee-X\JJ	.	.
8c\J	3	.	24c</LL	.	.
.	.	.	24cc\	.	.
.	.	.	24ccc\JJ	.	[[
!LO:LB:g=original	!	!	!LO:LB:g=original	!	!
*clefF4	*	*	*	*	*
=57	=57	=57	=57	=57	=57
8B-^\L	4	.	24B-</LL	.	.
.	.	.	24b-\	.	.
.	.	.	24bb-\JJ	.	.
8G\	1	.	24G</LL	.	.
.	.	.	24g\	.	.
.	.	.	24gg\JJ	.	.
8E-X\	.	.	24E-X</LL	.	.
.	.	.	24e-X\	.	.
.	.	.	24ee-X\JJ	.	.
8C\J	.	.	24C</LL	.	.
.	.	.	24c\	.	.
.	.	.	24cc\JJ	.	.
=58	=58	=58	=58	=58	=58
8BB-^\L	4	.	24BB-</LL	.	.
.	.	.	24B-\	.	.
.	.	.	24b-\JJ	.	.
8GG\	1	.	24GG</LL	.	.
.	.	.	24G\	.	.
.	.	.	24g\JJ	.	.
*	*	*	*clefF4	*	*
8EE-X\	.	.	24EE-X</LL	.	.
.	.	.	24E-X\	.	.
.	.	.	24e-X\JJ	.	.
8CC\J	.	.	24CC</LL	.	.
.	.	.	24C\	.	.
.	.	.	24c\JJ	.	.
=59	=59	=59	=59	=59	=59
*Xped	*	*	*	*	*
8BBB-^\L	4	.	24BBB-</LL	.	.
.	.	.	24BB-\	.	.
.	.	.	24B-\JJ	.	.
8GGG\ 8GG	.	.	24GG</LL	.	.
.	.	.	24BB-\	4	.
.	.	.	24G\JJ	.	.
8BBB-^\	.	.	24BBB-</LL	.	.
.	.	.	24BB-\	.	.
.	.	.	24B-\JJ	.	.
8GGG-X\J 8GG-X	.	.	24GG-X</LL	4	.
.	.	.	24BB-\	.	.
.	.	.	24G-X\JJ	.	.
=60	=60	=60	=60	=60	=60
8BBB-^\L	.	.	24BBB-</LL	.	.
.	.	.	24BB-\	.	.
.	.	.	24B-\JJ	.	.
8FFF\ 8FF	.	.	24FF</LL	.	.
.	.	.	24BB-\	.	.
.	.	.	24F\JJ	3	.
8BBB-^\	.	.	24BBB-</LL	.	.
.	.	.	24BB-\	.	.
.	.	.	24B-\JJ	.	.
8FFF-X\J 8FF-X	.	.	24FF-X</LL	.	.
.	.	.	24BB-\	.	.
.	.	.	24F-X\JJ	2	.
!LO:LB:g=original	!	!	!LO:LB:g=original	!	!
=61	=61	=61	=61	=61	=61
*ped	*	*	*	*	*
2ryy	.	.	24EEE-X<'^/LL 24EE-X<	.	.
.	.	.	24E-X\	.	.
.	.	.	24e-X\JJ	.	.
.	.	.	24DD-X<'/LL 24D-X<	.	.
.	.	.	24E-\	.	.
.	.	.	24e-\JJ	.	.
.	.	.	24BBB-<'/LL 24BB-<	.	.
.	.	.	24E-\	.	.
.	.	.	24e-\JJ	.	.
.	.	.	24DD-<'/LL 24D-<	.	.
.	.	.	24E-\	.	.
.	.	.	24e-\JJ	.	.
=62	=62	=62	=62	=62	=62
2ryy	.	.	24CC-X<'/LL 24C-X<	.	.
.	.	.	24E-X\	.	.
.	.	.	24e-X\JJ	.	.
.	.	.	24AAA-X<'/LL 24AA-X<	.	.
.	.	.	24E-\	.	.
.	.	.	24e-\JJ	.	.
*Xped	*	*	*	*	*
.	.	.	24CC-<'/LL 24C-<	.	.
.	.	.	24E-\	.	.
.	.	.	24e-\JJ	.	.
.	.	.	24BBB-<'/LL 24BB-<	.	.
.	.	.	24E-\	.	.
.	.	.	24e-\JJ	.	.
*	*	*	*clefG2	*	*
=63	=63	=63	=63	=63	=63
2ryy	.	.	24EEE-X<'/LL 24EE-X<	.	.
.	.	.	24B-\	.	.
!	!	!	!	!	!LO:DY:a
.	.	.	24b-\JJ	.	<
.	.	.	24GGGn<'/LL 24GGn<	.	.
.	.	.	24B-\	.	.
.	.	.	24b-\JJ	.	.
.	.	.	24FFFn<'/LL 24FFn<	.	.
.	.	.	24B-\	.	.
.	.	.	24b-\JJ	.	.
.	.	.	24BBB-<'/LL 24BB-<	.	.
.	.	.	24B-\	.	.
.	.	.	24b-\JJ	.	.
=64	=64	=64	=64	=64	=64
*^	*	*	*	*	*
4rcyy	(8GGG\L	.	.	24GGG</LL 24GG<	.	.
.	.	.	.	24B-\	.	.
.	.	.	.	24b-\JJ	.	.
.	8EE-X\J)	2	.	24EE-<X/LL	.	.
.	.	.	.	24B-\	.	.
.	.	.	.	24b-\JJ	.	.
*	*	*above	*	*	*	*
4BBB-/	(8BBB-\L	1	.	24r	.	.
.	.	.	.	24B-/LL	.	.
.	.	.	.	24b-/JJ	.	[
.	8BBBB-\J)	.	.	24r	.	.
.	.	.	.	24B-/LL	.	.
.	.	.	.	24b-/JJ	.	.
!LO:LB:g=original	!	!	!LO:LB:g=original	!	!	!
*v	*v	*	*	*	*	*
=65	=65	=65	=65	=65	=65
*ped	*	*	*	*	*
8EEE-X^\L 8EE-X	.	.	24EE-X</LL	.	.
.	.	.	24e-X\	.	f
.	.	.	24ee-X\JJ	.	.
*	*	*	*clefF4	*	*
8DD-X\	.	.	24DD-X</LL	.	.
.	.	.	24E-X\	.	p
.	.	.	24e-\JJ	.	.
8BBB-\	.	.	24BBB-</LL	.	.
.	.	.	24E-\	.	.
.	.	.	24e-\JJ	.	.
*	*below	*	*	*	*
8DD-\J	2	.	24DD-</LL	.	.
.	.	.	24E-\	.	.
.	.	.	24e-\JJ	.	.
=66	=66	=66	=66	=66	=66
8CC-X\L	1	.	24CC-X</LL	.	.
.	.	.	24E-X\	.	.
.	.	.	24e-X\JJ	.	.
8AAA-X\	3	.	24AAA-X</LL	.	.
.	.	.	24E-\	.	.
.	.	.	24e-\JJ	.	.
8CC-\	1	.	24CC-</LL	.	.
.	.	.	24E-\	.	.
.	.	.	24e-\JJ	.	.
8BBB-\J	.	.	24BBB-</LL	.	.
.	.	.	24E-\	.	.
.	.	.	24e-\JJ	.	.
=67	=67	=67	=67	=67	=67
8EEE-X\L	.	.	24EEE-X</LL	.	.
.	.	.	24BB-\	.	.
.	.	.	24B-\JJ	.	.
8GGG\	.	.	24GGG</LL	.	.
.	.	.	24BB-\	.	.
.	.	.	24B-\JJ	.	.
8BBB-\	1	.	24BBB-</LL	.	.
.	.	.	24BB-\	.	.
.	.	.	24B-\JJ	.	.
8FFF\J	4	.	24FFF</LL	.	.
.	.	.	24BB-\	.	.
.	.	.	24B-\JJ	.	.
=68	=68	=68	=68	=68	=68
*^	*	*	*	*	*
8GGG/L	4rEEyy	1	.	24r	.	.
.	.	.	.	24BB-\LL	.	.
.	.	.	.	24B-\JJ	.	.
8EEE-X/	.	3	.	24r	.	.
.	.	.	.	24BB-\LL	.	.
.	.	.	.	24B-\JJ	.	.
8BBBB-/	4BBBB-\	5	.	24r	.	.
.	.	.	.	24BB-\LL	.	.
.	.	.	.	24B-\JJ	.	.
8BBB-/J	.	.	.	24r	.	.
.	.	.	.	24BB-\LL	.	.
.	.	.	.	24B-\JJ	.	.
!LO:PB:g=original	!	!	!	!LO:PB:g=original	!	!
=69	=69	=69	=69	=69	=69	=69
*ped	*	*	*	*	*	*
8EEE-X/L	4EEE-\	.	.	24r	.	.
*	*	*	*	*	*	*below
.	.	.	.	24GG/LL	1	<
.	.	.	.	24E-X/JJ	.	.
8EE-X/J	.	.	.	24r	.	.
.	.	.	.	24GG/LL	.	.
.	.	.	.	24E-/JJ	.	.
*Xped	*	*	*	*	*	*
8FFF/L	4FFF\	.	.	24r	.	.
.	.	.	.	24AA-X/LL	2	.
.	.	.	.	24E-/JJ	.	.
8EE-/J	.	.	.	24r	.	.
.	.	.	.	24AA-/LL	.	.
.	.	.	.	24E-/JJ	.	.
=70	=70	=70	=70	=70	=70	=70
8FFF#X/L	4FFF#\	.	.	24r	.	.
.	.	.	.	24AAn/LL	1	.
.	.	.	.	24E-X/JJ	.	.
8EE-X/J	.	.	.	24r	.	.
.	.	.	.	24AA/LL	.	.
.	.	.	.	24E-/JJ	.	.
8GGG/L	4GGG\	.	.	24r	.	.
.	.	.	.	24BB-/LL	3	.
.	.	.	.	24E-/JJ	.	[
8EE-/J	.	.	.	24r	.	.
.	.	.	.	24BB-/LL	.	.
.	.	.	.	24E-/JJ	.	.
*v	*v	*	*	*	*	*
=71||	=71||	=71||	=71||	=71||	=71||
*k[f#c#g#d#a#]	*	*	*k[f#c#g#d#a#]	*	*
*B:	*	*	*B:	*	*
!	!	!	!LO:TX:a:B:t=Poco meno.	!	!
*ped	*	*	*	*	*
2BBB^\ 2BB	.	.	24FF#</LL	.	.
.	.	.	24D#\ 24B	.	.
.	.	.	24d#\JJ	.	.
.	.	.	24FF#</LL	.	.
!	!	!	!	!	!LO:DY:a
.	.	.	24D#\ 24B	.	p
.	.	.	24d#\JJ	.	.
.	.	.	24FF#</LL	.	.
.	.	.	24D#\ 24B	.	.
.	.	.	24d#\JJ	.	.
.	.	.	24FF#</LL	.	.
.	.	.	24D#\ 24B	.	.
.	.	.	24d#\JJ	.	.
=72	=72	=72	=72	=72	=72
2BBB^\ 2BB	.	.	24GGn</LL	.	.
!	!	!	!	!	!LO:DY:a
*	*	*	*	*	*above
.	.	.	24Dn\ 24B	.	<
.	.	.	24dn\JJ	.	.
*Xped	*	*	*	*	*
.	.	.	24GG</LL	.	.
.	.	.	24D\ 24B	.	.
.	.	.	24d\JJ	.	.
.	.	.	24GG</LL	.	.
.	.	.	24D\ 24B	.	.
.	.	.	24d\JJ	.	.
.	.	.	24GG</LL	.	.
.	.	.	24D\ 24B	.	.
.	.	.	24d\JJ	.	[
!LO:LB:g=original	!	!	!LO:LB:g=original	!	!
=73	=73	=73	=73	=73	=73
*ped	*	*	*	*	*
2BBB\	.	.	24GG#X<:/LL 24C#<:	.	.
.	.	.	24E#X\ 24B	3	.
.	.	.	24c#\JJ	4	.
.	.	.	24GG#</LL	.	.
.	.	.	24E#\ 24B	.	.
.	.	.	24c#\JJ	.	.
.	.	.	24GG#</LL	.	.
!	!	!	!	!	!LO:DY:a
.	.	.	24E#\ 24B	.	>
.	.	.	24c#\JJ	.	.
.	.	.	24GG#</LL	.	.
.	.	.	24E#\ 24B	.	.
.	.	.	24c#\JJ	.	.
=74	=74	=74	=74	=74	=74
2BBB^\	.	.	24GGn</LL	.	.
.	.	.	24En\ 24A#	.	.
.	.	.	24c##X\JJ	.	.
*Xped	*	*	*	*	*
.	.	.	24GG</LL	.	.
.	.	.	24E\ 24A#	.	.
.	.	.	24c##\JJ	.	]
.	.	.	24GG</LL	.	.
.	.	.	24E\ 24A#	.	.
.	.	.	24c##\JJ	.	.
.	.	.	24GG</LL	.	.
.	.	.	24E\ 24A#	.	.
.	.	.	24c##\JJ	.	.
=75	=75	=75	=75	=75	=75
*ped	*	*	*	*	*
8BBB'/ 8FF#	.	.	24r	.	.
!	!	!	!LO:TX:b:i:t=armonioso	!	!
.	.	.	24D#\LL	.	.
.	.	.	24B\JJ	.	.
8r	.	.	24d#\LL	.	.
.	.	.	24D#\	.	.
.	.	.	24B\JJ	.	.
*clefG2	*	*	*	*	*
8b^\	.	.	24d#\LL	.	.
.	.	.	24D#\	.	.
.	.	.	24B\JJ	.	.
8r	.	.	24d#\LL	.	.
.	.	.	24D#\	.	.
.	.	.	24B\JJ	.	.
*clefF4	*	*	*	*	*
=76	=76	=76	=76	=76	=76
8BBB'/ 8GGn	.	.	24r	.	.
.	.	.	24Dn\LL	.	.
.	.	.	24B\JJ	.	.
*Xped	*	*	*	*	*
8r	.	.	24dn\LL	.	.
.	.	.	24D\	.	.
.	.	.	24B\JJ	.	.
8gn^\	.	.	24d\LL	.	.
.	.	.	24D\	.	.
.	.	.	24B\JJ	.	.
8r	.	.	24d\LL	.	.
.	.	.	24D\	.	.
.	.	.	24B\JJ	.	.
!LO:LB:g=original	!	!	!LO:LB:g=original	!	!
=77	=77	=77	=77	=77	=77
*ped	*	*	*	*	*
8BBB':/ 8EE#X: 8C#X:	.	.	24r	.	.
.	.	.	24E#X\LL	.	.
.	.	.	24B\JJ	.	.
8r	.	.	24c#X\LL	.	.
.	.	.	24E#\	.	.
.	.	.	24B\JJ	.	.
8e#X^\	.	.	24c#\LL	.	.
.	.	.	24E#\	.	.
.	.	.	24B\JJ	.	.
8r	.	.	24c#\LL	.	.
.	.	.	24E#\	.	.
.	.	.	24B\JJ	.	.
=78	=78	=78	=78	=78	=78
8BBB'/ 8FF#	.	.	24r	.	.
.	.	.	24En\LL	.	.
.	.	.	24A#\JJ	.	.
*Xped	*	*	*	*	*
8r	.	.	24c##X\LL	.	.
.	.	.	24E\	.	.
.	.	.	24A#\JJ	.	.
8f#^\	.	.	24c##\LL	.	.
.	.	.	24E\	.	.
.	.	.	24A#\JJ	.	.
8r	.	.	24c##\LL	.	.
.	.	.	24E\	.	.
.	.	.	24A#\JJ	.	.
=79	=79	=79	=79	=79	=79
*ped	*	*	*	*	*
8BBB/ 8FF# 8BB	.	.	8D#X:\ 8B: 8d#X:	.	.
*	*	*	*clefG2	*	*below
8ryy	.	.	24cn<'/LL	.	pp
.	1	.	24an\	.	.
.	.	.	24aan\JJ	.	.
*Xped	*	*	*	*	*
4ryy	.	.	24An<'/LL	.	.
.	3	.	24f#\	.	.
.	.	.	24ff#\JJ	.	.
.	1	.	24c<'/LL	.	.
.	.	.	24a\	.	.
.	.	.	24aa\JJ	.	.
=80	=80	=80	=80	=80	=80
2ryy	.	.	24B<'/LL	.	.
.	2	.	24gn\	.	.
.	.	.	24ggn\JJ	.	.
.	4	.	24Gn<'/LL	.	.
.	.	.	24e\	.	.
.	.	.	24ee\JJ	.	.
.	1	.	24B<'/LL	.	.
.	.	.	24g\	.	.
.	.	.	24gg\JJ	.	.
.	.	.	24An<'/LL	.	.
.	.	.	24f#\	.	.
.	.	.	24ff#\JJ	.	.
!LO:LB:g=original	!	!	!LO:LB:g=original	!	!
=81	=81	=81	=81	=81	=81
2ryy	.	.	24F#<'/LL	.	.
.	4	.	24dn\	.	.
.	.	.	24ddn\JJ	.	.
.	.	.	24An<'/LL	.	.
.	.	.	24f#\	.	.
.	.	.	24ff#\JJ	.	.
.	.	.	24Gn<'/LL	.	.
.	.	.	24e\	.	.
.	.	.	24ee\JJ	.	.
.	1	.	24B<'/LL	.	.
.	.	.	24gn\	.	.
.	.	.	24ggn\JJ	.	.
=82	=82	=82	=82	=82	=82
2ryy	.	.	24An<'/LL	.	.
.	2	.	24f#\	.	.
.	.	.	24ff#\JJ	.	.
.	.	.	24Gn<'/LL	.	.
.	.	.	24e\	.	.
.	.	.	24ee\JJ	.	.
.	5	.	24E<'/LL	.	.
.	.	.	24cn\	.	.
.	.	.	24ccn\JJ	.	.
.	3	.	24G<'/LL	.	.
.	.	.	24e\	.	.
.	.	.	24ee\JJ	.	.
=83	=83	=83	=83	=83	=83
*^	*	*	*	*	*
*ped	*	*	*	*	*	*
8D#X/L	4BB\ 4D#X	.	.	24r	.	f
.	.	.	.	24d#X/LL 24b	.	.
.	.	.	.	24dd#X/JJ	.	.
8B/J	.	.	.	24r	.	.
.	.	.	.	24d#/LL 24b	.	<
.	.	.	.	24dd#/JJ	.	.
8E/L	4C#X\ 4E	.	.	24r	.	.
.	.	.	.	24e/LL 24b	.	.
.	.	.	.	24dd#/JJ	.	.
8B/J	.	.	.	24r	.	.
.	.	.	.	24e/LL 24b	.	.
.	.	.	.	24dd#/JJ	.	.
=84	=84	=84	=84	=84	=84	=84
8E#X/L	4C##X\ 4E#	.	.	24r	.	.
.	.	.	.	24e#X/LL 24b	.	.
.	.	.	.	24dd#/JJ	.	.
8B/J	.	.	.	24r	.	.
.	.	.	.	24e#/LL 24b	.	.
.	.	.	.	24dd#/JJ	.	.
8F#/L	4D#\ 4F#	.	.	24r	.	.
.	.	.	.	24f#/LL 24b	.	.
.	.	.	.	24dd#/JJ	.	.
8B/J	.	.	.	24r	.	.
.	.	.	.	24f#/LL 24b	.	.
.	.	.	.	24dd#/JJ	.	[
!LO:LB:g=original	!	!	!	!LO:LB:g=original	!	!
=85	=85	=85	=85	=85	=85	=85
*	*^	*	*	*	*	*
8GG#/L	[2EEn\	4ryy	.	.	24r	.	.
.	.	.	.	.	24d#/LL 24g#	.	.
.	.	.	.	.	24dd#/JJ	.	.
8E/J	.	.	.	.	24r	.	.
.	.	.	.	.	24d#/LL 24g#	.	.
.	.	.	.	.	24dd#/JJ	.	.
8AAn/L	.	4AA\	.	.	24r	.	.
.	.	.	.	.	24c##X/LL 24g#	.	>
.	.	.	.	.	24cc##X/JJ	.	.
8E/J	.	.	.	.	24r	.	.
.	.	.	.	.	24c##/LL 24g#	.	.
.	.	.	.	.	24cc##/JJ	.	.
*	*v	*v	*	*	*	*	*
=86	=86	=86	=86	=86	=86	=86
8AA#X/L	4EE\]	.	.	24r	.	.
.	.	.	.	24c#X/LL 24g#	.	.
.	.	.	.	24cc#X/JJ	.	.
*Xped	*	*	*	*	*	*
8E/J	.	.	.	24r	.	.
.	.	.	.	24c#/LL 24g#	.	]
.	.	.	.	24cc#/JJ	.	.
8BB/L	4DD#\	.	.	24r	.	.
.	.	.	.	24c#/LL 24f##X	.	.
.	.	.	.	24cc#/JJ	.	.
8D#/J	.	.	.	24r	.	.
.	.	.	.	24c#/LL 24f##	.	.
.	.	.	.	24cc#/JJ	.	.
*v	*v	*	*	*	*	*
=87||	=87||	=87||	=87||	=87||	=87||
*k[b-e-a-d-]	*	*	*k[b-e-a-d-]	*	*
*A-:	*	*	*A-:	*	*
*^	*	*	*	*	*
*ped	*	*	*	*	*	*
8EE-/ 8AA-	2AAA-\	.	.	8c/ 8a- 8cc	.	sf
*	*	*	*	*clefF4	*	*
8rcyy	.	.	.	24EE-</LL	.	.
.	.	2	.	24C\ 24A-	.	.
.	.	.	.	24c\JJ	.	.
4rcyy	.	.	.	24EE-</LL	.	.
.	.	.	.	24C\ 24A-	.	.
.	.	.	.	24c\JJ	.	.
.	.	1	.	24AA-</LL	.	.
.	.	.	.	24C\ 24A-	.	.
.	.	.	.	24c\JJ	.	.
*	*	*	*	*clefG2	*	*
=88	=88	=88	=88	=88	=88	=88
8FF-X/ 8AA-	2AAA-\	.	.	8c-X/ 8dn 8a- 8cc-X	.	sf
*	*	*	*	*clefF4	*	*
8rcyy	.	.	.	24FF</LL	.	.
.	.	.	.	24Dn\ 24A-	.	.
.	.	.	.	24c-X\JJ	.	.
*Xped	*	*	*	*	*	*
4rcyy	.	.	.	24FF</LL	.	.
.	.	.	.	24D\ 24A-	.	.
.	.	.	.	24c-\JJ	.	.
.	.	.	.	24AA-</LL	.	.
.	.	.	.	24D\ 24A-	.	.
.	.	.	.	24c-\JJ	.	.
*	*	*	*	*clefG2	*	*
!LO:LB:g=original	!	!	!	!LO:LB:g=original	!	!
=89	=89	=89	=89	=89	=89	=89
8FFn/ 8AA-	2AAA-\	.	.	8B-/ 8dn 8a- 8b-	.	sf
*	*	*	*	*clefF4	*	*
8rcyy	.	.	.	24FF</LL	.	.
.	.	.	.	24Dn\ 24A-	4	.
.	.	.	.	24B-\JJ	5	.
4rcyy	.	.	.	24FF</LL	.	.
.	.	.	.	24D\ 24A-	.	.
.	.	.	.	24B-\JJ	.	.
.	.	.	.	24AA-</LL	.	.
.	.	.	.	24D\ 24A-	.	.
.	.	.	.	24B-\JJ	.	.
*	*	*	*	*clefG2	*	*
=90	=90	=90	=90	=90	=90	=90
8FF-X/ 8GG	2AAA-\	.	.	8Bn/ 8d-X 8g 8bn	.	sf
*	*	*	*	*clefF4	*	*
8rcyy	.	.	.	24FF</LL	.	.
.	.	.	.	24D-X\ 24G	.	.
.	.	.	.	24Bn\JJ	.	.
*Xped	*	*	*	*	*	*
4rcyy	.	.	.	24FF</LL	.	.
.	.	.	.	24D-\ 24G	.	.
.	.	.	.	24B\JJ	.	.
.	.	.	.	24GG</LL	.	.
.	.	.	.	24D-\ 24G	.	.
.	.	.	.	24B\JJ	.	.
*v	*v	*	*	*	*	*
=91	=91	=91	=91	=91	=91
*ped	*	*	*	*	*
8AAA-'/ 8EE-	.	.	24r	.	p
.	.	.	24Cn\LL	.	.
.	.	.	24A-\JJ	.	.
8r	.	.	24cn\LL	.	.
.	.	.	24C\	.	.
.	.	.	24A-\JJ	.	.
8a-^\	.	.	24c\LL	.	.
.	.	.	24C\	.	.
.	.	.	24A-\JJ	.	.
8r	.	.	24c\LL	.	.
.	.	.	24C\	.	.
.	.	.	24A-\JJ	.	.
=92	=92	=92	=92	=92	=92
8AAA-'/ 8FF-X	.	.	24r	.	.
.	.	.	24C-X\LL	.	.
.	.	.	24A-\JJ	.	.
*Xped	*	*	*	*	*
8r	.	.	24c-X\LL	.	.
.	.	.	24C-\	.	.
.	.	.	24A-\JJ	.	.
8f-X^\	.	.	24c-\LL	.	.
.	.	.	24C-\	.	.
.	.	.	24A-\JJ	.	.
8r	.	.	24c-\LL	.	.
.	.	.	24C-\	.	.
.	.	.	24A-\JJ	.	.
!LO:LB:g=original	!	!	!LO:LB:g=original	!	!
=93	=93	=93	=93	=93	=93
*ped	*	*	*	*	*
8AAA-':/ 8FFn: 8BB-X:	.	.	24r	.	.
.	.	.	24Dn\LL	.	.
.	.	.	24A-\JJ	.	.
8r	.	.	24B-X\LL	.	.
.	.	.	24D\	.	.
.	.	.	24A-\JJ	.	.
8dn^\	.	.	24B-\LL	.	.
.	.	.	24D\	.	.
.	.	.	24A-\JJ	.	.
8r	.	.	24B-\LL	.	.
.	.	.	24D\	.	.
.	.	.	24A-\JJ	.	.
=94	=94	=94	=94	=94	=94
8AAA-'/ 8EE-	.	.	24r	.	.
.	.	.	24D-X\LL	.	.
.	.	.	24G\JJ	.	.
*Xped	*	*	*	*	*
8r	.	.	24Bn\LL	.	.
.	.	.	24D-\	.	.
.	.	.	24G\JJ	.	.
8e-^\	.	.	24B\LL	.	.
.	.	.	24D-\	.	.
.	.	.	24G\JJ	.	.
8r	.	.	24B\LL	.	.
.	.	.	24D-\	.	.
.	.	.	24G\JJ	.	.
=95	=95	=95	=95	=95	=95
*^	*	*	*	*	*
*ped	*	*	*	*	*	*
8AAA-/L	4AAA-^\	.	.	24r	.	.
.	.	.	.	24Cn\LL 24A-	.	.
.	.	.	.	24cn\JJ	.	.
8AA-/J	.	.	.	24r	.	.
.	.	.	.	24C\LL 24A-	.	<
.	.	.	.	24c\JJ	.	.
8BBB-X/L	4BBB-^\	.	.	24r	.	.
.	.	.	.	24D-\LL 24A-	.	.
.	.	.	.	24c\JJ	.	.
8AA-/J	.	.	.	24r	.	.
.	.	.	.	24D-\LL 24A-	.	.
.	.	.	.	24c\JJ	.	.
=96	=96	=96	=96	=96	=96	=96
8BBBn/L	4BBB^\	.	.	24r	.	.
.	.	.	.	24Dn\LL 24A-	.	.
.	.	.	.	24c\JJ	.	.
8AA-/J	.	.	.	24r	.	.
.	.	.	.	24D\LL 24A-	.	.
.	.	.	.	24c\JJ	.	.
8CC/L	4CC^\	.	.	24r	.	.
.	.	.	.	24E-\LL 24A-	.	.
.	.	.	.	24c\JJ	.	.
8AA-/J	.	.	.	24r	.	.
.	.	.	.	24E-\LL 24A-	.	.
.	.	.	.	24c\JJ	.	[
!LO:LB:g=original	!	!	!	!LO:LB:g=original	!	!
=97	=97	=97	=97	=97	=97	=97
8DD-/L	4DD-^\	.	.	24r	.	.
.	.	.	.	24En\LL 24A-	.	.
.	.	.	.	24c\JJ	.	.
8AA-/J	.	.	.	24r	.	.
.	.	.	.	24E\LL 24A-	.	.
.	.	.	.	24c\JJ	.	.
8DDn/L	4DD^\	.	.	24r	.	.
.	.	.	.	24F\LL 24A-	.	>
.	.	.	.	24c-X\JJ	.	.
*Xped	*	*	*	*	*	*
8AA-/J	.	.	.	24r	.	.
.	.	.	.	24F\LL 24A-	.	.
.	.	.	.	24c-\JJ	.	.
=98	=98	=98	=98	=98	=98	=98
8EE-X/L	4EE-^\	.	.	24r	.	.
.	.	.	.	24G\LL	.	.
.	.	.	.	24B-\JJ	.	.
8GG/J	.	.	.	24r	.	.
.	.	.	.	24G\LL	.	.
.	.	.	.	24B-\JJ	.	.
8EEn/L	4EE\	.	.	24r	.	.
.	.	.	.	24G\LL 24B-	.	.
.	.	.	.	24cn\JJ	.	.
8C/J	.	.	.	24r	.	]
.	.	.	.	24G\LL 24B-	.	.
.	.	.	.	24c\JJ	.	.
*	*	*	*	*clefG2	*	*
=99	=99	=99	=99	=99	=99	=99
*ped	*	*	*	*	*	*
8FF/L	4FF^\	.	.	24r	.	.
.	.	.	.	24A-/LL 24f	.	.
.	.	.	.	24a-/JJ	.	.
8F/J	.	.	.	24r	.	.
.	.	.	.	24A-/LL 24f	.	.
.	.	.	.	24a-/JJ	.	.
8GG-X/L	4GG-^\	.	.	24r	.	.
.	.	.	.	24An/LL 24f	.	<
.	.	.	.	24a-X/JJ	.	.
8F/J	.	.	.	24r	.	.
.	.	.	.	24A/LL 24f	.	.
.	.	.	.	24a-X/JJ	.	.
=100	=100	=100	=100	=100	=100	=100
8GGn/L	4GGn^\	.	.	24r	.	.
.	.	.	.	24B-/LL 24f	.	.
.	.	.	.	24a-/JJ	.	.
8F/J	.	.	.	24r	.	.
.	.	.	.	24B-/LL 24f	.	.
.	.	.	.	24a-/JJ	.	.
8AA-/L	4AA-^\	.	.	24r	.	.
.	.	.	.	24Bn/LL 24f	.	.
.	.	.	.	24a-/JJ	.	.
8F/J	.	.	.	24r	.	.
.	.	.	.	24B/LL 24f	.	.
.	.	.	.	24a-/JJ	.	[
!LO:LB:g=original	!	!	!	!LO:LB:g=original	!	!
=101	=101	=101	=101	=101	=101	=101
8AAn/L	4AA^\	.	.	24r	.	.
.	.	.	.	24c/LL 24f	.	.
.	.	.	.	24a-X/JJ	.	.
8F/J	.	.	.	24r	.	.
.	.	.	.	24c/LL 24f	.	.
.	.	.	.	24a-/JJ	.	.
8BB-X/L	4BB-^\	.	.	24r	.	.
.	.	.	.	24d-X/LL 24f	2 3	.
.	.	.	.	24g-X/JJ	4	.
*Xped	*	*	*	*	*	*
8G-X/J	.	.	.	24r	.	.
.	.	.	.	24d-/LL 24f	.	>
.	.	.	.	24g-/JJ	.	.
=102	=102	=102	=102	=102	=102	=102
8C-X/L	4C-^\	.	.	24r	.	.
.	.	.	.	24e--/LL	1	.
.	.	.	.	24g-X/JJ	.	.
8G-X/J	.	.	.	24r	.	.
.	.	.	.	24e--/LL	.	.
.	.	.	.	24g-/JJ	.	.
8Cn/L	4C\	.	.	24r	.	.
.	.	.	.	24e-X/LL 24gn	.	.
.	.	.	.	24a-/JJ	.	.
8A-/J	.	.	.	24r	.	.
.	.	.	.	24e-/LL 24g	.	]
.	.	.	.	24a-/JJ	.	.
=103	=103	=103	=103	=103	=103	=103
*	*ped	*	*	*	*	*
8F/L	4D-^\ 4F	.	.	24r	.	.
.	.	.	.	24f\LL	.	.
.	.	.	.	24dd-X\JJ	.	.
8d-/J	.	.	.	24ff\LL	.	.
.	.	.	.	24f\	.	.
.	.	.	.	24dd-\JJ	.	.
8G-X/L	4E-^\ 4G-	.	.	24r	.	.
.	.	.	.	24g-X\LL	1	.
.	.	.	.	24dd-\JJ	3	.
8d-/J	.	.	.	24ff\LL	.	.
.	.	.	.	24g-\	.	.
.	.	.	.	24dd-\JJ	.	.
=104	=104	=104	=104	=104	=104	=104
8Gn/L	4En^\ 4G	.	.	24r	.	.
.	.	.	.	24gn\LL	.	<
.	.	.	.	24dd-\JJ	.	.
8d-/J	.	.	.	24ff\LL	.	.
.	.	.	.	24g\	.	.
.	.	.	.	24dd-\JJ	.	.
8A-/L	4F^\ 4A-	.	.	24r	.	.
.	.	.	.	24a-\LL	.	.
.	.	.	.	24dd-\JJ	.	.
8d-/J	.	.	.	24ff\LL	.	.
.	.	.	.	24a-\	.	.
.	.	.	.	24dd-\JJ	.	[
!LO:LB:g=original	!	!	!	!LO:LB:g=original	!	!
=105	=105	=105	=105	=105	=105	=105
8An/L	4G-X^\	.	.	24r	.	.
.	.	.	.	24an\LL	.	.
.	.	.	.	24dd-\JJ	.	.
8d-/J	.	.	.	24ff\LL	.	>
.	.	.	.	24a\	.	.
.	.	.	.	24dd-\JJ	.	.
*Xped	*	*	*	*	*	*
8B-/L	4Gn^\	.	.	24r	.	.
.	.	.	.	24b-\LL	2	.
.	.	.	.	24dd-\JJ	4	.
8d-/J	.	.	.	24ff-X\LL	5	.
.	.	.	.	24b-\	.	.
.	.	.	.	24dd-\JJ	.	.
=106	=106	=106	=106	=106	=106	=106
8A-X/L	4A-^\	.	.	24r	.	.
.	.	.	.	24e-X/LL	1	]
.	.	.	.	24cc/JJ	.	.
8c/J	.	.	.	24ee-/LL	.	.
.	.	.	.	24e-/	.	.
.	.	.	.	24cc/JJ	.	.
8An/L	4A\	.	.	24r	.	.
.	.	.	.	24fn\LL	.	.
.	.	.	.	24ee-\JJ	.	.
8c/J	.	.	.	24ff\LL	.	.
*ped	*	*	*	*	*	*
.	.	.	.	24f\	.	.
.	.	.	.	24ee-\JJ	.	.
*clefG2	*	*	*	*	*	*
=107	=107	=107	=107	=107	=107	=107
8d-/L	4B-^\	.	.	24r	.	<
.	.	.	.	24dd-\LL	.	.
.	.	.	.	24bb-\JJ	.	.
8b-/J	.	.	.	24ddd-\LL	.	.
.	.	.	.	24dd-\	.	.
.	.	.	.	24bb-\JJ	.	.
8dn/L	4c-X^\	.	.	24r	.	.
.	.	.	.	24ddn\LL	.	.
.	.	.	.	24bb-\JJ	.	.
8b-/J	.	.	.	24ddd-X\LL	.	.
.	.	.	.	24ddn\	.	.
.	.	.	.	24bb-\JJ	.	.
=108	=108	=108	=108	=108	=108	=108
8e-/L	4cn^\ 4e-	.	.	24r	.	.
.	.	.	.	24ee-\LL	.	.
.	.	.	.	24bb-\JJ	.	.
8b-/J	.	.	.	24ddd-X\LL	.	.
.	.	.	.	24ee-\	.	.
.	.	.	.	24bb-\JJ	.	.
8en/L	4d-X^\	.	.	24r	.	.
.	.	.	.	24een\LL	.	.
.	.	.	.	24bb-\JJ	.	.
8b-/J	.	.	.	24ddd-\LL	.	.
.	.	.	.	24ee\	.	.
.	.	.	.	24bb-\JJ	.	[
!LO:LB:g=original	!	!	!	!LO:LB:g=original	!	!
=109	=109	=109	=109	=109	=109	=109
8f/L	4dn^\ 4f	.	.	24r	.	.
.	.	.	.	24ff\LL	.	.
.	.	.	.	24bb-\JJ	.	.
8b-/J	.	.	.	24ddd-X\LL	.	.
.	.	.	.	24ff\	.	.
.	.	.	.	24bb-\JJ	.	.
8g-X/L	4e-X^\ 4g-	.	.	24r	.	.
*Xped	*	*	*	*	*	*
.	.	.	.	24gg-X\LL	2	>
.	.	.	.	24bb-\JJ	3	.
8b-/J	.	.	.	24ccc-X\LL	4	.
.	.	.	.	24gg-\	.	.
.	.	.	.	24bb-\JJ	.	.
=110	=110	=110	=110	=110	=110	=110
8gn/L	4en^\	.	.	24r	.	.
.	.	.	.	24ggn\LL	1	.
.	.	.	.	24bb-\JJ	3	.
8b-/J	.	.	.	24ccc-X\LL	4	.
.	.	.	.	24gg\	.	.
.	.	.	.	24bb-\JJ	.	]
8f/L	4f\	.	.	24r	.	.
.	.	.	.	24aa-X\LL	2	.
.	.	.	.	24ccc-\JJ	3	.
8a-/J	.	.	.	24ddd-X\LL	4	.
.	.	.	.	24aa-\	.	.
.	.	.	.	24ccc-\JJ	.	.
*v	*v	*	*	*	*	*
=111	=111	=111	=111	=111	=111
*ped	*	*above	*	*	*
8g-X'/	.	sf-p	24r	.	.
.	.	.	24dd-\LL	.	.
.	.	.	24bb-\JJ	4	.
8r	.	.	24ddd-\LL	.	.
.	.	.	24bb-\	.	.
.	.	.	24dd-\JJ	.	.
8bbb-^\	.	.	24r	.	.
.	.	.	24dd-\LL	.	.
.	.	.	24bb-\JJ	.	.
8r	.	.	24ddd-\LL	.	.
.	.	.	24bb-\	.	.
.	.	.	24dd-\JJ	.	.
=112	=112	=112	=112	=112	=112
8d-'/	.	.	24r	.	.
.	.	.	24dd-\LL	.	.
.	.	.	24aan\JJ	3	.
8r	.	.	24ddd-\LL	.	.
.	.	.	24aa\	.	.
.	.	.	24ff\JJ	.	.
8fff^\	.	.	24r	.	.
.	.	.	24dd-\LL	.	.
.	.	.	24aa\JJ	.	.
8r	.	.	24ddd-\LL	.	.
.	.	.	24aa\	.	.
.	.	.	24ff\JJ	.	.
!LO:LB:g=original	!	!	!LO:LB:g=original	!	!
=113	=113	=113	=113	=113	=113
8G-X'/	.	.	24r	.	.
.	.	.	24dd-\LL	4	.
.	.	.	24bb-\JJ	.	.
8r	.	.	24ddd-\LL	.	.
.	.	.	24bb-\	.	.
.	.	.	24dd-\JJ	.	.
8ggg-X^\	.	.	24r	.	.
.	.	.	24dd-\LL	.	.
.	.	.	24bb-\JJ	.	.
*Xped	*	*	*	*	*
8r	.	.	24ddd-\LL	.	.
.	.	.	24bb-\	.	.
.	.	.	24dd-\JJ	.	.
=114	=114	=114	=114	=114	=114
*	*above	*	*	*	*
8f/L	2	.	24r	.	.
.	.	.	24cc\LL	.	.
.	.	.	24bb-\JJ	.	.
8en/	3	.	24ccc\LL	.	.
.	.	.	24bb-\	.	.
.	.	.	24cc\JJ	.	.
8cn/	5	.	24r	.	.
.	.	.	24bb-\LL	1	.
.	.	.	24ccc\JJ	2	.
8cc/J	1	.	8gggn\	5	.
=115	=115	=115	=115	=115	=115
*ped	*	*	*	*	*
8f'/	.	sf-p	24r	.	.
.	.	.	24cc\LL	.	.
.	.	.	24aa-X\JJ	3	.
8r	.	.	24ccc\LL	.	.
.	.	.	24aa-\	.	.
.	.	.	24cc\JJ	.	.
8aaa-^\	.	.	24r	.	.
.	.	.	24cc\LL	.	.
.	.	.	24aa-\JJ	.	.
8r	.	.	24ccc\LL	.	.
.	.	.	24aa-\	.	.
.	.	.	24cc\JJ	.	.
=116	=116	=116	=116	=116	=116
8c'/	.	.	24r	.	.
.	.	.	24cc\LL	.	.
.	.	.	24aa-\JJ	.	.
8r	.	.	24ccc\LL	.	.
.	.	.	24aa-\	.	.
.	.	.	24cc\JJ	.	.
8eeen^\	.	.	24r	.	.
.	.	.	24cc\LL	.	.
.	.	.	24aa-\JJ	.	.
8r	.	.	24ccc\LL	.	.
.	.	.	24aa-\	.	.
.	.	.	24cc\JJ	.	.
!LO:PB:g=original	!	!	!LO:PB:g=original	!	!
=117	=117	=117	=117	=117	=117
8F'/	.	.	24r	.	.
.	.	.	24cc-X\LL	.	.
.	.	.	24aa-\JJ	.	.
8r	.	.	24ccc-X\LL	.	.
.	.	.	24aa-\	.	.
.	.	.	24cc-\JJ	.	.
8fff^\	.	.	24r	.	.
.	.	.	24cc-\LL	.	.
.	.	.	24aa-\JJ	.	.
*Xped	*	*	*	*	*
8r	.	.	24ccc-\LL	.	.
.	.	.	24aa-\	.	.
.	.	.	24cc-\JJ	.	.
=118	=118	=118	=118	=118	=118
8e-X/L	2	.	24r	.	.
.	.	.	24b-\LL	.	.
.	.	.	24aa-\JJ	.	.
8dn/	.	.	24bb-\LL	.	.
.	.	.	24aa-\	.	.
.	.	.	24b-\JJ	.	.
8B-/	5	.	24r	.	.
.	.	.	24ddn\LL	1	.
.	.	.	24aa-\JJ	4	.
8b-/J	.	.	8bb-\	5	.
=119	=119	=119	=119	=119	=119
*ped	*	*	*	*	*
8e-'/	.	.	24r	.	sf
.	.	.	24b-\LL	.	.
.	.	.	24gg-X\JJ	.	.
8r	.	.	24bb-\LL	.	.
.	.	.	24gg-\	.	.
.	.	.	24b-\JJ	.	.
8ggg-X^\	.	.	24r	.	.
.	.	.	24b-\LL	.	.
.	.	.	24gg-\JJ	.	.
8r	.	.	24bb-\LL	.	.
.	.	.	24gg-\	.	.
.	.	.	24b-\JJ	.	.
=120	=120	=120	=120	=120	=120
*Xtuplet	*below	*	*	*	*
(<24d-X/LL	4	.	8ryy	.	.
(<24b--/	1	.	.	.	.
*Xped	*	*	*	*	*
[<24gg->X\JJ	.	.	.	2	2
8d-/) 8b--)	.	.	8gg-X\ 8eee--	5	.
(<24cn/LL	5	.	8ryy	.	.
(<24a-/	2	.	.	.	.
[<24gg->\JJ	.	.	.	.	2
8c/) 8a-)	.	.	8gg-\ 8eee-X	5	.
!LO:LB:g=original	!	!	!LO:LB:g=original	!	!
=121	=121	=121	=121	=121	=121
*ped	*	*	*	*	*
8d-'/	.	.	24r	.	sf
.	.	.	24a-\LL	.	.
.	.	.	24ff\JJ	.	.
8r	.	.	24aa-\LL	.	.
.	.	.	24ff\	.	.
.	.	.	24a-\JJ	.	.
8fff^\	.	.	24r	.	.
.	.	.	24a-\LL	.	.
.	.	.	24ff\JJ	.	.
8r	.	.	24aa-\LL	.	.
.	.	.	24ff\	.	.
.	.	.	24a-\JJ	.	.
=122	=122	=122	=122	=122	=122
*	*	*	*^	*	*
(<24c/LL	4	.	8raayy	4rcyy	.	.
(<24a-/	.	.	.	.	.	.
[<24ff>\JJ	.	.	.	.	1	.
8c/) 8a-)	.	.	8ff\ 8ccc	.	3	.
(<24Bn/LL	5	.	8raayy	16eee-/KL	5	.
(<24gn/	.	.	.	.	.	.
.	.	.	.	8.ddd-/J	4	.
[24ff>\JJ	.	.	.	.	1	.
8B/) 8g)	.	.	8ff\	.	.	.
*	*	*	*v	*v	*	*
=123	=123	=123	=123	=123	=123
*ped	*	*	*	*	*
8c'/	.	.	24r	.	sf
.	.	.	24g\LL	.	.
.	.	.	24een\JJ	.	.
8r	.	.	24gg\LL	.	.
.	.	.	24ee\	.	.
.	.	.	24g\JJ	.	.
8ccc^\	.	.	24r	.	.
.	.	.	24g\LL	.	.
.	.	.	24ee\JJ	.	.
8r	.	.	24gg\LL	.	.
.	.	.	24ee\	.	.
.	.	.	24g\JJ	.	.
=124	=124	=124	=124	=124	=124
*Xped	*	*	*	*	*
8G'/	.	.	24r	.	.
.	.	.	24dd-\LL	2	.
.	.	.	24ff\JJ	4	.
8r	.	.	24gg\LL	5	.
.	.	.	24ff\	.	.
.	.	.	24dd-\JJ	.	.
8bbn^\	.	.	24r	.	.
.	.	.	24dd-\LL	.	.
.	.	.	24ff\JJ	.	.
8r	.	.	24gg\LL	.	.
.	.	.	24ff\	.	.
.	.	.	24dd-\JJ	.	.
!LO:LB:g=original	!	!	!LO:LB:g=original	!	!
*clefF4	*	*	*	*	*
=125	=125	=125	=125	=125	=125
*ped	*	*	*	*	*
8C'/	.	.	24r	.	.
.	.	.	24g\LL	.	.
.	.	.	24een\JJ	.	.
8r	.	.	24gg\LL	.	.
.	.	.	24ee\	.	.
.	.	.	24g\JJ	.	.
*clefG2	*	*	*	*	*
8eeen^\	.	.	24r	.	.
.	.	.	24g\LL	.	.
.	.	.	24ee\JJ	.	.
8r	.	.	24gg\LL	.	.
.	.	.	24ee\	.	.
.	.	.	24g\JJ	.	.
=126	=126	=126	=126	=126	=126
*Xped	*	*	*	*	*
(<24c/LL	5	.	8ryy	.	.
(<24en/	3	.	.	.	.
[<24een>\JJ	.	.	.	1	.
8c/) 8e)	.	.	8een\ 8gg	3	.
(<24c/LL	5	.	8ryy	.	.
(<24f#X/	2	.	.	.	.
[<24ee>\JJ	.	.	.	1	.
8c/) 8f#)	.	.	8ee\ 8aan	4	.
*clefF4	*	*	*	*	*
=127||	=127||	=127||	=127||	=127||	=127||
*k[f#]	*	*	*k[f#]	*	*
*e:	*	*	*e:	*	*
*	*	*	*8va	*	*
*ped	*	*	*	*	*
8BB\L 8F# 8B	.	.	8bb\ 8ddd#X 8bbb	.	sf
*clefG2	*	*	*	*	*
8aa\	.	.	24aaa</LL	.	pp
.	.	.	24aaa\	.	.
.	.	.	24bbb\JJ	.	.
8ff#\	.	.	24fff#</LL	.	.
.	.	.	24fff#\	.	.
.	.	.	24bbb\JJ	.	.
8aa\J	.	.	24aaa</LL	.	.
.	.	.	24aaa\	.	.
.	.	.	24bbb\JJ	.	.
=128	=128	=128	=128	=128	=128
8gg^\L	.	.	24ggg</LL	.	.
.	.	.	24ggg\	.	.
.	.	.	24bbb\JJ	.	.
8ee\	.	.	24eee</LL	.	.
.	.	.	24eee\	.	.
.	.	.	24bbb\JJ	.	.
*Xped	*	*	*	*	*
8gg\	.	.	24ggg</LL	.	.
.	.	.	24ggg\	.	.
.	.	.	24bbb\JJ	.	.
8ff#\J	.	.	24fff#</LL	.	.
.	.	.	24fff#\	.	.
.	.	.	24bbb\JJ	.	.
!LO:LB:g=original	!	!	!LO:LB:g=original	!	!
=129	=129	=129	=129	=129	=129
8ddn^\L	.	.	24dddn</LL	.	.
.	.	.	24ddd\	.	.
.	.	.	24bbb\JJ	.	.
8ff#\	.	.	24fff#</LL	.	.
.	.	.	24fff#\	.	.
.	.	.	24bbb\JJ	.	.
8ee\	.	.	24eee</LL	.	.
.	.	.	24eee\	.	.
.	.	.	24bbb\JJ	.	.
8cc\J	.	.	24ccc</LL	.	.
.	.	.	24ccc\	.	.
.	.	.	24bbb\JJ	.	.
=130	=130	=130	=130	=130	=130
8ee^\L	.	.	24eee</LL	.	.
.	.	.	24eee\	.	.
.	.	.	24bbb\JJ	.	.
8dd\	.	.	24ddd</LL	.	.
.	.	.	24ddd\	.	.
.	.	.	24bbb\JJ	.	.
8b\	.	.	24bb</LL	.	.
.	.	.	24bb\	.	.
.	.	.	24bbb\JJ	.	.
8dd\J	.	.	24ddd</LL	.	.
.	.	.	24ddd\	.	.
.	.	.	24bbb\JJ	.	.
=131	=131	=131	=131	=131	=131
*	*	*below	*	*	*
8cc\L	.	<	24ccc</LL	.	.
.	.	.	24ccc\	.	.
.	.	.	24bbb\JJ	.	.
8a\	.	.	24aa</LL	.	.
.	.	.	24aa\	.	.
.	.	.	24bbb\JJ	.	.
8cc\	.	.	24ccc</LL	.	.
.	.	.	24ccc\	.	.
.	.	.	24bbb\JJ	.	.
8b\J	.	.	24bb</LL	.	.
.	.	.	24bb\	.	.
.	.	.	24bbb\JJ	.	.
*	*	*	*X8va	*	*
=132	=132	=132	=132	=132	=132
8g\L	.	.	24g</LL	.	.
.	.	.	24gg\	1	.
.	.	.	24bb\JJ	2	.
8b\	.	.	24b</LL	.	.
*	*	*	*8va	*	*
.	.	.	24bb\	.	.
.	.	.	24bbb\JJ	.	.
*	*	*	*X8va	*	*
8a\	.	.	24a</LL	3	.
.	.	.	24aa\	4	.
.	.	.	24bb\JJ	.	.
8f#\J	.	.	24f#</LL	.	.
.	.	.	24ff#\	.	.
.	.	.	24bb\JJ	.	.
=133	=133	=133	=133	=133	=133
8a\L	.	.	24a</LL	.	.
.	.	.	24aa\	.	.
.	.	.	24bb\JJ	.	.
8g\	.	.	24g</LL	.	.
.	.	.	24gg\	.	.
.	.	.	24bb\JJ	.	.
8e\	.	.	24e</LL	.	.
.	.	.	24ee\	.	.
.	.	.	24bb\JJ	.	.
8g\J	.	.	24g</LL	.	.
.	.	.	24gg\	.	.
.	.	.	24bb\JJ	.	.
!LO:LB:g=original	!	!	!LO:LB:g=original	!	!
=134	=134	=134	=134	=134	=134
8f#\L	.	.	24f#</LL	.	.
.	.	.	24ff#\	.	.
.	.	.	24bb\JJ	.	.
8d\	.	.	24d</LL	.	.
.	.	.	24dd\	.	.
.	.	.	24bb\JJ	.	.
8f#\	.	.	24f#</LL	.	.
.	.	.	24ff#\	.	.
.	.	.	24bb\JJ	.	.
8e\J	.	.	24e</LL	.	.
.	.	.	24ee\	.	.
.	.	.	24bb\JJ	.	.
=135	=135	=135	=135	=135	=135
*ped	*	*	*	*	*above
8c\L	.	<	24c</LL	.	f
.	.	.	24cc\	.	.
.	.	.	24bb\JJ	.	.
8e\	.	.	24e</LL	.	.
.	.	.	24ee\	.	.
.	.	.	24bb\JJ	.	.
8d#X\	.	.	24d#X</LL	.	.
.	.	.	24dd#X\	.	.
.	.	.	24bb\JJ	.	.
8g\J	1	[	24g</LL	.	.
.	.	.	24gg\	.	.
.	.	.	24bb\JJ	.	.
=136	=136	=136	=136	=136	=136
8f#\L	.	>	24f#</LL	.	.
.	.	.	24ff#\	.	.
.	.	.	24bb\JJ	.	.
8d#X\	.	.	24d#X</LL	.	.
.	.	.	24dd#X\	.	.
.	.	.	24bb\JJ	.	.
*Xped	*	*	*	*	*
8B\	1	.	24B</LL	.	.
.	.	.	24b\	.	.
.	.	.	24bb\JJ	.	.
8G\J	.	]	24G</LL	.	.
.	.	.	24g\	.	.
.	.	.	24gg\JJ	.	.
*clefF4	*	*	*	*	*
=137	=137	=137	=137	=137	=137
8F#\L	.	<	24F#</LL	.	.
.	.	.	24f#\	.	.
.	.	.	24ff#\JJ	.	.
8c\	.	.	24c</LL	.	.
.	.	.	24cc\	.	.
.	.	.	24ff#\JJ	.	.
8B\	.	.	24B</LL	.	.
.	.	.	24b\	.	.
.	.	.	24ff#\JJ	.	.
8e\J	.	[	24c</LL	.	.
.	.	.	24ee\	.	.
.	.	.	24ff#\JJ	.	.
=138	=138	=138	=138	=138	=138
8d#X\L	.	>	24d#X</LL	.	.
.	.	.	24dd#X\	.	.
.	.	.	24ff#\JJ	.	.
8B\	1	.	24B</LL	.	.
.	.	.	24b\	.	.
.	.	.	24ff#\JJ	.	.
8F#\	.	.	24F#</LL	.	.
.	.	.	24f#\	.	.
.	.	.	24ff#\JJ	.	.
8D#X\J	.	]	24D#X</LL	.	.
.	.	.	24d#\	.	.
.	.	.	24dd#\JJ	.	.
!LO:LB:g=original	!	!	!LO:LB:g=original	!	!
=139	=139	=139	=139	=139	=139
*ped	*	*	*	*	*
8BB\L	.	<	24BB</LL	.	.
.	.	.	24B\	1	.
.	.	.	24b\JJ	.	.
8D#X\	.	.	24D#X</LL	.	.
.	.	.	24d#X\	2	.
.	.	.	24b\JJ	.	.
8C#X\	.	.	24C#X</LL	.	.
.	.	.	24c#X\	1	.
.	.	.	24b\JJ	.	.
8F#\J	.	[	24F#</LL	.	.
.	.	.	24f#\	3	.
.	.	.	24b\JJ	.	.
=140	=140	=140	=140	=140	=140
*^	*	*	*	*	*
4rcyy	8D#X\L	.	>	24D#X</LL	.	.
.	.	.	.	24d#X\	2	.
.	.	.	.	24b\JJ	.	.
.	8BB\J	.	.	24BB</LL	.	.
.	.	.	.	24B\	.	.
.	.	.	.	24b\JJ	.	.
*	*	*above	*	*	*	*
4FF#/	8FF#\L	1	.	24r	.	.
*	*	*	*	*clefF4	*	*
.	.	.	.	24F#\LL	.	.
.	.	.	.	24f#\JJ	.	.
.	8FFF#\J	.	]	24r	.	.
.	.	.	.	24F#\LL	.	.
.	.	.	.	24f#\JJ	.	.
*v	*v	*	*	*	*	*
=141	=141	=141	=141	=141	=141
8BBB\L	.	.	24BBB</LL	.	.
.	.	.	24F#\	.	.
!	!	!	!	!	!LO:HP:t=dim.
.	.	.	24f#\JJ	.	>
8DD#X\	.	.	24DD#X</LL	.	.
.	.	.	24D#X\	.	.
.	.	.	24d#X\JJ	.	.
8FF#\	.	.	24FF#</LL	.	.
.	.	.	24F#\	.	.
.	.	.	24f#\JJ	.	.
8CC#X\J	.	.	24CC#X</LL	.	.
.	.	.	24C#X\	.	.
.	.	.	24c#X\JJ	.	.
=142	=142	=142	=142	=142	=142
*^	*	*	*	*	*
4rcyy	4rEEyy	.	.	24DD#X</LL	.	.
.	.	.	.	24D#X\	.	.
.	.	.	.	24d#X\JJ	.	.
.	.	.	.	24BBB</LL	.	.
.	.	.	.	24BB\	.	.
.	.	.	.	24B\JJ	.	.
8FFF#/L	4FFF#\	.	.	24r	.	.
.	.	.	.	24BB\LL	.	.
.	.	.	.	24F#\JJ	.	.
8FF#/J	.	.	.	24r	.	.
.	.	.	.	24AA#X/LL	.	.
.	.	.	.	24F#/JJ	.	.
!LO:LB:g=original	!	!	!	!LO:LB:g=original	!	!
=143	=143	=143	=143	=143	=143	=143
*ped	*	*	*	*	*	*
8BBBB/L	4BBBB^\	.	.	24r	.	.
.	.	.	.	24BB/LL	.	.
.	.	.	.	24D#X/JJ	.	.
8BBB/J	.	.	.	24r	.	.
.	.	.	.	24BB\LL	.	.
.	.	.	.	24B\JJ	.	.
*Xped	*	*	*	*	*	*
8CCCn/L	4CCC^\	.	.	24r	.	.
.	.	.	.	24BB-X\LL	.	.
.	.	.	.	24B-X\JJ	.	.
8CCn/J	.	.	.	24r	.	.
.	.	.	.	24BB-/LL	.	.
.	.	.	.	24E/JJ	.	.
=144	=144	=144	=144	=144	=144	=144
8CCC#X/L	4CCC#^\	.	.	24r	.	.
.	.	.	.	24AA\LL	.	.
.	.	.	.	24A\JJ	.	.
8CC#X/J	.	.	.	24r	.	.
.	.	.	.	24BBn\LL	.	.
.	.	.	.	24G#X\JJ	.	.
8AAA/L	4AAA\	.	.	24r	.	.
!	!	!	!	!	!	!LO:DY:a
.	.	.	.	24BB#X/LL	.	<
.	.	.	.	24C#X/JJ	.	.
8AA/J	.	.	.	24E\LL	.	[
.	.	.	.	24Gn\	.	.
.	.	.	.	24C#\JJ	.	.
=145	=145	=145	=145	=145	=145	=145
*ped	*	*	*	*	*	*
8DDDn/L	4DDD^\	.	.	24r	.	.
.	.	.	.	24D\LL	.	.
.	.	.	.	24F#\JJ	.	.
8DDn/J	.	.	.	24r	.	.
.	.	.	.	24D\LL	.	.
.	.	.	.	24d\JJ	.	.
*Xped	*	*	*	*	*	*
8EEE-X/L	4EEE-^\	.	.	24r	.	.
.	.	.	.	24D-X\LL	.	.
.	.	.	.	24d-X\JJ	.	.
8EE-X/J	.	.	.	24r	.	.
.	.	.	.	24D-\LL	.	.
.	.	.	.	24G\JJ	.	.
=146	=146	=146	=146	=146	=146	=146
8EEEn/L	4EEE^\	.	.	24r	.	.
.	.	.	.	24Cn\LL	.	.
.	.	.	.	24cn\JJ	.	.
8EEn/J	.	.	.	24r	.	.
.	.	.	.	24Dn\LL	.	.
.	.	.	.	24B\JJ	.	.
8CC/L	4CC\	.	.	24r	.	.
!	!	!	!	!	!	!LO:DY:a
.	.	.	.	24D#X\LL	2	<
.	.	.	.	24E\JJ	1	.
8C/J	.	.	.	24G\LL	3	[
.	.	.	.	24B-X\	.	>
.	.	.	.	24E\JJ	.	]
!LO:LB:g=original	!	!	!	!LO:LB:g=original	!	!
=147	=147	=147	=147	=147	=147	=147
*ped	*	*	*	*	*	*below
8FFFn/L	4FFF^\	.	.	24r	.	<
.	.	.	.	24Fn\LL	.	.
.	.	.	.	24A\JJ	.	.
8FFn/J	.	.	.	24r	.	.
.	.	.	.	24F\LL	.	.
.	.	.	.	24fn\JJ	.	.
*Xped	*	*	*	*	*	*
8GGG-X/L	4GGG-\	.	.	24r	.	.
.	.	.	.	24F-X\LL	.	.
.	.	.	.	24f-X\JJ	.	.
8GG-X/J	.	.	.	24r	.	.
.	.	.	.	24F-\LL	.	.
.	.	.	.	24B-X\JJ	.	.
=148	=148	=148	=148	=148	=148	=148
8GGGn/L	4GGG^\	.	.	24r	.	.
.	.	.	.	24E-X\LL	.	.
.	.	.	.	24Bn\JJ	.	.
8GGn/J	.	.	.	24d-X\LL	.	.
.	.	.	.	24e-X\	.	.
.	.	.	.	24E-X\JJ	.	.
8AAA-X/L	4AAA-\	.	.	24r	.	.
*	*	*	*	*clefG2	*	*
.	.	.	.	24A-X/LL	.	.
.	.	.	.	24c/JJ	.	.
8AA-X/J	.	.	.	24r	.	.
.	.	.	.	24A-/LL	.	.
.	.	.	.	24a-X/JJ	.	.
=149	=149	=149	=149	=149	=149	=149
*ped	*	*	*	*	*	*
8AAAn/L	4AAA^\	.	.	24r	.	.
.	.	.	.	24G/LL	.	.
.	.	.	.	24g/JJ	.	.
8AAn/J	.	.	.	24r	.	.
.	.	.	.	24G/LL	.	.
.	.	.	.	24c#X/JJ	.	.
*Xped	*	*	*	*	*	*
8BBB-X/L	4BBB-\	.	.	24r	.	.
.	.	.	.	24G-X/LL	.	.
.	.	.	.	24dn/JJ	.	.
8BB-X/J	.	.	.	24f-X/LL	.	.
.	.	.	.	24g-X/	.	.
.	.	.	.	24G-/JJ	.	.
=150	=150	=150	=150	=150	=150	=150
8CC-X/L	4CC-^\	.	.	24r	.	.
.	.	.	.	24c-X/LL	.	.
.	.	.	.	24e-X/JJ	.	.
8C-X/J	.	.	.	24g-X/LL	.	.
.	.	.	.	24cc-X/	.	.
.	.	.	.	24c-/JJ	.	.
8CCn/L	4CC\	.	.	24r	.	.
.	.	.	.	24B-X/LL	.	.
.	.	.	.	24en/JJ	.	.
8Cn/J	.	.	.	24gn/LL	.	.
.	.	.	.	24b-X/	.	.
.	.	.	.	24B-/JJ	.	.
!LO:LB:g=original	!	!	!	!LO:LB:g=original	!	!
*v	*v	*	*	*	*	*
=151||	=151||	=151||	=151||	=151||	=151||
*k[b-]	*	*	*k[b-]	*	*
*d:	*	*	*d:	*	*
*ped	*	*	*	*	*
8CC#X/ 8EE 8AA 8C#X	.	.	8A/ 8e 8a	.	sf
*	*below	*	*clefF4	*	*
8BBB-\L	4	.	24BBB-</LL	.	.
.	.	.	24BB-\	.	.
!	!	!	!	!	!LO:DY:a
*	*	*	*	*	*above
.	.	.	24B-\JJ	.	<
8AAA\	.	.	24AAA</LL	.	.
.	.	.	24AA\	.	.
.	.	.	24A\JJ	.	.
8CC#\J	.	.	24CC#X</LL	.	.
.	.	.	24C#X\	.	.
.	.	.	24c#X\JJ	.	.
=152	=152	=152	=152	=152	=152
8EE\L	.	.	24EE</LL	.	.
.	.	.	24E\	.	.
.	.	.	24e\JJ	.	.
8AA\	1	.	24AA</LL	.	.
*	*	*	*clefG2	*	*
.	.	.	24A\	.	.
.	.	.	24a\JJ	.	.
8C#X\	.	.	24C#X</LL	.	.
*Xped	*	*	*	*	*
.	.	.	24c#X\	.	.
.	.	.	24cc#X\JJ	.	[
(<8AAA\J	.	.	8r	.	.
=153	=153	=153	=153	=153	=153
*ped	*	*	*	*	*
8AAA/) 8DD 8FF 8AA	.	.	8B-/ 8d 8f 8b-	.	sf
*	*	*	*clefF4	*	*
8CCn\L	3	.	24CCn</LL	.	.
!	!	!	!	!	!LO:DY:a
.	.	.	24Cn\	.	<
.	.	.	24cn\JJ	.	.
8BBB-\	.	.	24BBB-</LL	.	.
.	.	.	24BB-\	.	.
.	.	.	24B-\JJ	.	.
8DD\J	.	.	24DD</LL	.	.
.	.	.	24D\	.	.
.	.	.	24d\JJ	.	.
=154	=154	=154	=154	=154	=154
8FF\L	1	.	24FF</LL	.	.
.	.	.	24F\	.	.
.	.	.	24f\JJ	.	.
8BB-\	.	.	24BB-</LL	.	.
*	*	*	*clefG2	*	*
.	.	.	24B-\	.	.
.	.	.	24b-\JJ	.	.
*Xped	*	*	*	*	*
8D\	.	.	24D</LL	.	.
.	.	.	24d\	.	.
.	.	.	24dd\JJ	.	[
(<8AAA\J	.	.	8r	.	.
!LO:LB:g=original	!	!	!LO:LB:g=original	!	!
=155	=155	=155	=155	=155	=155
8AAA/) 8EE 8GG	.	.	8c#X/ 8e 8g 8cc#X	.	sf
*	*	*	*clefF4	*	*
8DD\L	3	.	24DD</LL	.	.
!	!	!	!	!	!LO:DY:a
.	.	.	24D\	.	<
.	.	.	24d\JJ	.	.
8CC#X\	.	.	24CC#X</LL	.	.
.	.	.	24C#X\	.	.
.	.	.	24c#X\JJ	.	.
8EE\J	.	.	24EE</LL	.	.
.	.	.	24E\	.	.
.	.	.	24e\JJ	.	.
=156	=156	=156	=156	=156	=156
8GG\L	1	.	24GG</LL	.	.
.	.	.	24G\	.	.
.	.	.	24g\JJ	.	.
8GG#X\	4	.	24GG#X</LL	.	.
.	.	.	24G#X\	.	.
.	.	.	24g#X\JJ	.	.
*	*	*	*clefG2	*	*
8BB-\	.	.	24BB-</LL	.	.
.	.	.	24B-\	.	.
.	.	.	24b-\JJ	.	.
8AA\J	.	.	24AA</LL	.	.
.	.	.	24A\	.	.
.	.	.	24a\JJ	.	.
=157	=157	=157	=157	=157	=157
8D^\L	.	.	24D</LL	.	.
.	.	.	24d\	.	.
.	.	.	24dd\JJ	.	.
8BB#X\	.	.	24BB#X</LL	.	.
.	.	.	24B#X\	.	.
.	.	.	24b#X\JJ	.	.
8C#X\	.	.	24C#X</LL	.	.
.	.	.	24c#X\	.	.
.	.	.	24cc#X\JJ	.	.
8F\J	.	.	24F</LL	.	.
.	.	.	24f\	.	.
.	.	.	24ff\JJ	.	.
=158	=158	=158	=158	=158	=158
8D#X\L	.	.	24D#X</LL	.	.
.	.	.	24d#X\	.	.
.	.	.	24dd#X\JJ	.	.
8E\	.	.	24E</LL	.	.
.	.	.	24e\	.	.
.	.	.	24ee\JJ	.	.
8cn\	.	.	24cn</LL	.	.
*Xped	*	*	*	*	*
.	.	.	24ccn\	.	.
.	.	.	24cccn\JJ	.	.
8Bn\J	.	.	24Bn</LL	.	.
.	.	.	24bn\	.	[
.	.	.	24bbn\JJ	.	.
!LO:LB:g=original	!	!	!LO:LB:g=original	!	!
=159	=159	=159	=159	=159	=159
8B-X\L	.	.	24B-X</LL	.	.
.	.	.	24b-X\	.	.
.	.	.	24bb-X\JJ	.	.
8A^\ 8a	.	.	8aa^\ 8aaa	.	.
*clefG2	*	*	*	*	*
*ped	*	*	*	*	*below
8gg#X\	.	.	24gg#X</LL	.	f
.	.	.	24aaa\	.	.
.	.	.	24aa\JJ	.	.
8ggn\J	.	.	24ggn</LL	.	.
.	.	.	24aaa\	.	.
.	.	.	24aa\JJ	.	.
=160	=160	=160	=160	=160	=160
8ff#X\L	.	.	24ff#X</LL	.	.
.	.	.	24aaa\	.	.
.	.	.	24aa\JJ	.	.
8ffn\	.	.	24gg#X</LL	.	.
.	.	.	24ggg#X\ 24aaa	.	.
.	.	.	24aa\JJ	.	.
8ee\	.	.	24ggn</LL	.	.
.	.	.	24gggn\ 24aaa	.	.
.	.	.	24aa\JJ	.	.
8dd#X\J	.	.	24ff#</LL	.	.
.	.	.	24fff#X\ 24aaa	.	.
.	.	.	24aa\JJ	.	.
=161	=161	=161	=161	=161	=161
8ddn\L	.	.	24ffn</LL	.	.
.	.	.	24fffn\ 24aaa	.	.
.	.	.	24aa\JJ	.	.
8cc#X\	.	.	24ee</LL	.	.
.	.	.	24eee\ 24aaa	.	.
.	.	.	24aa\JJ	.	.
8ccn\	.	.	24ee-X</LL	.	.
.	.	.	24eee-X\ 24aaa	.	.
.	.	.	24aa\JJ	.	.
8bn\J	.	.	24dd</LL	.	.
.	.	.	24ddd\ 24aaa	.	.
.	.	.	24aa\JJ	.	.
=162	=162	=162	=162	=162	=162
8b-X\L	.	.	24cc#X</LL	.	<
.	.	.	24ccc#X\ 24aaa	.	.
.	.	.	24aa\JJ	.	.
8a\	.	.	24ccn</LL	.	.
.	.	.	24cccn\ 24aaa	.	.
.	.	.	24aa\JJ	.	.
8g#X\	.	.	24bn</LL	.	.
.	.	.	24aaa\	.	.
.	.	.	24bbn\JJ	.	.
8gn\J	.	.	24b-X</LL	.	.
.	.	.	24aaa\	.	.
.	.	.	24bb-X\JJ	.	.
!LO:LB:g=original	!	!	!LO:LB:g=original	!	!
=163	=163	=163	=163	=163	=163
8f#X\L	.	.	24a</LL	.	.
.	.	.	24aaa\	.	.
.	.	.	24aa\JJ	.	.
8fn\	.	.	24g#X</LL	.	.
.	.	.	24gg#X\ 24aa	.	.
.	.	.	24a\JJ	.	.
8e\	.	.	24gn</LL	.	.
.	.	.	24ggn\ 24aa	.	.
.	.	.	24a\JJ	.	.
8d#X\J	.	.	24f#X</LL	.	.
.	.	.	24ff#X\ 24aa	.	.
.	.	.	24a\JJ	.	.
=164	=164	=164	=164	=164	=164
8dn\L	.	.	24fn</LL	.	.
.	.	.	24ffn\ 24aa	.	.
.	.	.	24a\JJ	.	.
8c#X\	.	.	24e</LL	.	.
.	.	.	24ee\ 24aa	.	.
.	.	.	24a\JJ	.	.
8cn\	.	.	24e-X</LL	.	.
.	.	.	24ee-X\ 24aa	.	.
.	.	.	24a\JJ	.	.
8Bn\J	.	.	24d<LL	.	.
.	.	.	24dd\ 24aa	.	.
.	.	.	24a\JJ	.	.
*clefF4	*	*	*	*	*
=165	=165	=165	=165	=165	=165
8B-X\L	.	.	24c#X</LL	.	.
.	.	.	24cc#X\ 24aa	.	.
.	.	.	24a\JJ	.	.
8A\	.	.	24cn</LL	.	.
.	.	.	24ccn\ 24aa	.	.
.	.	.	24a\JJ	.	.
8G#X\	.	.	24Bn</LL	.	.
.	.	.	24aa\	.	.
.	.	.	24bn\JJ	.	.
8Gn\J	.	.	24B-X</LL	.	.
.	.	.	24aa\	.	.
.	.	.	24b-X\JJ	.	.
=166	=166	=166	=166	=166	=166
*Xped	*	*	*	*	*
8F#X\L	.	.	24A</LL	.	.
.	.	.	24aa\	.	.
.	.	.	24a\JJ	.	.
8Fn\	.	.	24G#X</LL	.	.
.	.	.	24aa\	.	.
.	.	.	24g#X\JJ	.	.
8E\	.	.	24Gn</LL	.	.
.	.	.	24aa\	.	.
.	.	.	24gn\JJ	.	.
8E-X\J	.	.	24F#X</LL	.	.
.	.	.	24aa\	.	.
.	.	.	24f#X\JJ	.	.
!LO:PB:g=original	!	!	!LO:PB:g=original	!	!
=167	=167	=167	=167	=167	=167
!	!	!	!LO:TX:a:B:t=Con bravura.	!	!
*ped	*	*	*	*	*
8DDD\L 8AAA 8DD	.	.	8dd^\ 8ff 8aa 8ddd	.	ff
8C\ 8D 8c	.	.	24c</LL	.	.
.	.	.	24d\	.	.
.	.	.	24cc\JJ 24dd	.	.
8AA\ 8A	.	.	24A</LL	.	.
.	.	.	24d\	.	.
.	.	.	24a\JJ 24dd	.	.
8C\J 8D 8c	.	.	24c</LL	.	.
.	.	.	24d\	.	.
.	.	.	24cc\JJ 24dd	.	.
=168	=168	=168	=168	=168	=168
8BB-\L 8B-	.	.	24B-</LL	.	.
.	.	.	24d\	.	.
.	.	.	24b-\JJ 24dd	.	.
8GG\ 8G	.	.	24G</LL	.	.
.	.	.	24d\	.	.
.	.	.	24g\JJ 24dd	.	.
8BB-\ 8B-	.	.	24B-</LL	.	.
.	.	.	24d\	.	.
.	.	.	24b-\JJ 24dd	.	.
8AA\J 8A	.	.	24A</LL	.	.
.	.	.	24d\	.	.
.	.	.	24a\JJ 24dd	.	.
=169	=169	=169	=169	=169	=169
8DDD\L 8DD	.	.	8aa^\ 8ddd 8aaa	.	.
8FF\ 8AA 8F	.	.	24F</LL	.	.
.	.	.	24f\	.	.
.	.	.	24a\JJ 24ff	.	.
8EE\ 8E	.	.	24E</LL	.	.
.	.	.	24e\	.	.
.	.	.	24a\JJ 24ee	.	.
8AA\J 8A	.	.	24A</LL	.	.
.	.	.	24a\	.	.
.	.	.	24aa\JJ	.	.
=170	=170	=170	=170	=170	=170
8FF\L 8F	.	.	24F</LL	.	.
.	.	.	24f\	.	.
.	.	.	24ff\JJ	.	.
*Xped	*	*	*	*	*
8DD\ 8D	.	.	24D</LL	.	.
.	.	.	24d\	.	.
.	.	.	24dd\JJ	.	.
8AA'\	.	.	8a'\L	.	.
8AAA\J 8AA	.	.	8a^\J 8aa	.	.
!LO:LB:g=original	!	!	!LO:LB:g=original	!	!
=171	=171	=171	=171	=171	=171
*ped	*	*	*	*	*
8DDD\L 8AAA 8DD	.	.	8dd^\ 8ff 8aa 8ddd	.	.
8C\ 8D 8c	.	.	24c</LL	.	.
.	.	.	24d\	.	.
.	.	.	24cc\JJ 24dd	.	.
8AA\ 8A	.	.	24A</LL	.	.
.	.	.	24d\	.	.
.	.	.	24a\JJ 24dd	.	.
8C\J 8D 8c	.	.	24c</LL	.	.
.	.	.	24d\	.	.
.	.	.	24cc\JJ 24dd	.	.
=172	=172	=172	=172	=172	=172
8BB-\L 8B-	.	.	24B-</LL	.	.
.	.	.	24d\	.	.
.	.	.	24b-\JJ 24dd	.	.
8GG\ 8G	.	.	24G</LL	.	.
.	.	.	24d\	.	.
.	.	.	24g\JJ 24dd	.	.
8BB-\ 8B-	.	.	24B-</LL	.	.
.	.	.	24d\	.	.
.	.	.	24b-\JJ 24dd	.	.
8AA\J 8A	.	.	24A</LL	.	.
.	.	.	24d\	.	.
.	.	.	24a\JJ 24dd	.	.
=173	=173	=173	=173	=173	=173
8DDD\L 8DD	.	.	8aa^\ 8ddd 8aaa	.	.
8FF\ 8F	.	.	24F</LL	.	.
.	.	.	24ff\ 24aa	4 5	.
.	.	.	24a\JJ	.	.
8AA\ 8A	.	.	24A</LL	.	.
.	.	.	24aa\	.	.
.	.	.	24a\JJ	.	.
8EE\J 8E	.	.	24E</LL	.	.
.	.	.	24ee\ 24aa	3 5	.
.	.	.	24a\JJ	.	.
=174	=174	=174	=174	=174	=174
8FF\L 8F	.	.	24F</LL	.	.
.	.	.	24ff\ 24aa	.	.
.	.	.	24a\JJ	.	.
8DD\ 8D	.	.	24D</LL	.	.
.	.	.	24dd\ 24aa	.	.
.	.	.	24a\JJ	.	.
*Xped	*	*	*	*	*
8AAA\ 8AA	.	.	24AA</LL	.	.
.	.	.	24aa\	.	.
.	.	.	24a\JJ	.	.
8AAA\J 8AA	.	.	8a\ 8aa	.	.
!LO:LB:g=original	!	!	!LO:LB:g=original	!	!
=175	=175	=175	=175	=175	=175
*ped	*	*	*	*	*
8CC#X\L 8C#X	.	.	8gg^\ 8aa 8ggg	1 1	.
8AAA\ 8AA	.	.	24AA</LL	.	.
.	.	.	24aa\ 24eee	.	.
.	.	.	24ee\JJ	.	.
8DD\ 8D	.	.	24D</LL	.	.
.	.	.	24aa\ 24fff	.	.
.	.	.	24ff\JJ	.	.
8AAA\J 8AA	.	.	24AA</LL	.	.
.	.	.	24aa\ 24ddd	.	.
.	.	.	24dd\JJ	.	.
=176	=176	=176	=176	=176	=176
8EE\L 8E	.	.	24E</LL	.	.
.	.	.	24aa\ 24ccc#X	.	.
.	.	.	24cc#X\JJ	.	.
8AAA\ 8AA	.	.	24AA</LL	.	.
.	.	.	24eee\	.	.
.	.	.	24ee\JJ	.	.
*Xped	*	*	*	*	*
8AA\ 8A	.	.	24A</LL	.	.
.	.	.	24aa\	.	.
.	.	.	24a\JJ	.	.
8AAA\J 8AA	.	.	24AA</LL	.	.
.	.	.	24aaa\	.	.
.	.	.	24aa\JJ	.	.
=177	=177	=177	=177	=177	=177
*ped	*	*	*	*	*
8CC#X\L 8C#X	.	.	8gg^\ 8bb- 8ccc#X 8ggg	.	.
8AAA\ 8AA	.	.	24AA</LL	.	.
.	.	.	24eee\	.	.
.	.	.	24ee\JJ	.	.
8DD\ 8D	.	.	24D</LL	.	.
.	.	.	24gg#X\ 24bbn 24fff	.	.
.	.	.	24ff\JJ	.	.
8AAA\J 8AA	.	.	24AA</LL	.	.
.	.	.	24eee\	.	.
.	.	.	24ee\JJ	.	.
=178	=178	=178	=178	=178	=178
8EE\L 8E	.	.	24E</LL	.	.
.	.	.	24aa\ 24ddd	2 5	.
.	.	.	24dd\JJ	.	.
8AAA\ 8AA	.	.	24AA</LL	.	.
.	.	.	24aa\ 24ccc#X	2 4	.
.	.	.	24cc#X\JJ	.	.
*Xped	*	*	*	*	*
8GGn\ 8Gn	.	.	24Gn</LL	.	.
.	.	.	24eee\	.	.
.	.	.	24ee\JJ	.	.
8AAA\J 8AA	.	.	24A</A\LL	.	.
.	.	.	24aa\	.	.
.	.	.	24a\JJ	.	.
!LO:LB:g=original	!	!	!LO:LB:g=original	!	!
=179	=179	=179	=179	=179	=179
*ped	*	*	*	*	*
8DDD\L 8DD	.	.	8aa^\ 8cccn 8eee-X 8aaa	.	fff
8FFF#X\ 8FF#X	.	.	24FF#X</LL	.	.
.	.	.	24ccc\ 24eee- 24aaa	.	.
.	.	.	24aa\JJ	.	.
8AAA\ 8AA	.	.	24AA</LL	.	.
.	.	.	24ccc\ 24eee- 24aaa	.	.
.	.	.	24aa\JJ	.	.
8CCn\J 8Cn	.	.	24C</LL	.	.
.	.	.	24ccc\ 24eee- 24aaa	.	.
.	.	.	24aa\JJ	.	.
=180	=180	=180	=180	=180	=180
8BBBn\L 8BBn	.	.	24BBn</LL	.	.
.	.	.	24bbn\ 24ddd 24aaa-X	.	.
.	.	.	24aa-X\JJ	.	.
8DD\ 8D	.	.	24D</LL	.	.
.	.	.	24bb\ 24ddd 24aaa-	.	.
.	.	.	24aa-\JJ	.	.
8FFn\ 8Fn	.	.	24Fn</LL	.	.
.	.	.	24bb\ 24ddd 24aaa-	.	.
.	.	.	24aa-\JJ	.	.
8AA-X\J 8A-X	.	.	24A-X</LL	.	.
.	.	.	24bb\ 24ddd 24aaa-	.	.
.	.	.	24aa-\JJ	.	.
=181	=181	=181	=181	=181	=181
8CC#X\L 8C#X	.	.	24C#X</LL	.	.
.	.	.	24bb-X\ 24ccc#X 24ggg	.	.
.	.	.	24gg\JJ	.	.
8EEn\ 8En	.	.	24E</LL	.	.
.	.	.	24bb-\ 24ccc# 24ggg	.	.
.	.	.	24gg\JJ	.	.
8GG\ 8G	.	.	24G</LL	.	.
.	.	.	24bb-\ 24ccc# 24ggg	.	.
.	.	.	24gg\JJ	.	.
8BB-X\J 8B-X	.	.	24B-X</LL	.	.
.	.	.	24bb-\ 24ccc# 24ggg	.	.
.	.	.	24gg\JJ	.	.
=182	=182	=182	=182	=182	=182
*Xped	*	*	*	*	*
8AAn\L 8An	.	.	24An</LL	.	.
.	.	.	24aan\ 24cccn 24ggg-X	.	.
.	.	.	24gg-X\JJ	.	.
8Cn\ 8cn	.	.	24c</LL	.	.
.	.	.	24aa\ 24ccc 24ggg-	.	.
.	.	.	24gg-\JJ	.	.
8E-X\ 8e-X	.	.	24e-X</LL	.	.
.	.	.	24aa\ 24ccc 24ggg-	.	.
.	.	.	24gg-\JJ	.	.
8G-X\J 8g-X	.	.	24g-X</LL	.	.
.	.	.	24aa\ 24ccc 24ggg-	.	.
.	.	.	24gg-\JJ	.	.
!LO:LB:g=original	!	!	!LO:LB:g=original	!	!
=183	=183	=183	=183	=183	=183
*ped	*	*	*	*	*
8DDD\L 8BBB- 8DD	.	.	8ff^\ 8bb- 8fff	.	.
8En\ 8en	.	.	24en</LL	.	.
.	.	.	24een\	.	.
.	.	.	24eeen\JJ	.	.
8F^\ 8f	.	.	24f</LL	.	.
.	.	.	24ff\	.	.
.	.	.	24fff\JJ	.	.
8C#X\J 8c#X	.	.	24c#X</LL	.	.
.	.	.	24cc#X\	.	.
.	.	.	24ccc#X\JJ	.	.
=184	=184	=184	=184	=184	=184
8D^\L 8d	.	.	24d</LL	.	.
.	.	.	24dd\	.	.
.	.	.	24ddd\JJ	.	.
8AA\ 8A	.	.	24A</LL	.	.
.	.	.	24a\	.	.
.	.	.	24aa\JJ	.	.
8BB-^\ 8B-	.	.	24B-</LL	.	.
.	.	.	24b-\	.	.
.	.	.	24bb-\JJ	.	.
8EE\J 8E	.	.	24E</LL	.	.
.	.	.	24e\	.	.
.	.	.	24ee\JJ	.	.
=185	=185	=185	=185	=185	=185
*Xped	*	*	*	*	*
8FF^\L 8F	.	.	24F</LL	.	.
.	.	.	24f\	.	.
.	.	.	24ff\JJ	.	.
8DD\ 8D	.	.	24D</LL	.	.
.	.	.	24d\	.	.
.	.	.	24dd\JJ	.	.
8FF^\ 8F	.	.	24F</LL	.	.
.	.	.	24f\	.	.
.	.	.	24ff\JJ	.	.
8DD-X\J 8D-X	.	.	24D-X</LL	.	.
.	.	.	24d-X\	.	.
.	.	.	24dd-X\JJ	.	.
=186	=186	=186	=186	=186	=186
8FF^\L 8F	.	.	24F</LL	.	.
.	.	.	24f\	.	.
.	.	.	24ff\JJ	.	.
8CCn\ 8Cn	.	.	24Cn</LL	.	.
.	.	.	24cn\	.	.
.	.	.	24ccn\JJ	.	.
8FF^\ 8F	.	.	24F</LL	.	.
.	.	.	24f\	.	.
.	.	.	24ff\JJ	.	.
8C-X\J	.	.	24C-X</LL	.	.
.	.	.	24c-X\	.	.
.	.	.	24cc-X\JJ	.	.
!LO:LB:g=original	!	!	!LO:LB:g=original	!	!
=187	=187	=187	=187	=187	=187
*ped	*	*	*	*	*
8DDD-X\L 8GGG-X 8BBB- 8DD-X	.	.	8B-^/ 8g-X 8b-	.	.
!	!	!	!	!	!LO:HP:t=dim.
8F\	.	.	24F</LL	.	>
.	.	.	24f\	3	.
.	.	.	24b-\JJ	.	.
8D-X\	.	.	24D-X</LL	.	.
.	.	.	24d-X\	4	.
.	.	.	24b-\JJ	.	.
8F\J	.	.	24F</LL	.	.
.	.	.	24f\	3	.
.	.	.	24b-\JJ	.	.
=188	=188	=188	=188	=188	=188
8E-X\L	.	.	24E-X</LL	.	.
.	.	.	24e-X\	2	.
.	.	.	24b-\JJ	.	.
8C-X\	.	.	24C-X</LL	.	.
.	.	.	24c-X\	1	.
.	.	.	24b-\JJ	.	.
8E-\	.	.	24E-</LL	.	.
.	.	.	24e-\	.	.
.	.	.	24b-\JJ	.	.
8D-X\J	.	.	24D-X</LL	.	.
.	.	.	24d-X\	.	.
.	.	.	24b-\JJ	.	.
=189	=189	=189	=189	=189	=189
*Xped	*	*	*	*	*
8GGG-X'\L 8GG-X	.	<	24GG-X</LL	.	.
.	.	.	24d-X\	.	.
.	.	.	24dd-X\JJ	.	.
8BBB-'\ 8BB-	.	.	24BB-</LL	.	.
.	.	.	24d-\	.	.
.	.	.	24dd-\JJ	.	.
8AAA-X'\ 8AA-X	.	.	24AA-X</LL	.	.
.	.	.	24d-\	.	.
.	.	.	24dd-\JJ	.	.
8DD-X'\J 8D-X	.	[	24D-X</LL	.	.
.	.	.	24d-\	.	.
.	.	.	24dd-\JJ	.	.
=190	=190	=190	=190	=190	=190
*	*above	*	*	*	*
8BB-\L	2	>	24BB-</LL	.	.
.	.	.	24d-X\	.	.
.	.	.	24dd-X\JJ	.	.
8GG-X\	3	.	24GG-X</LL	.	.
.	.	.	24d-\	.	.
.	.	.	24dd-\JJ	.	.
8DD-X\	1	.	24r	.	.
.	.	.	24d-/LL	.	.
.	.	.	24dd-/JJ	.	.
(<8DDD-X\J	.	]	24r	.	.
.	.	.	24d-/LL	.	.
.	.	.	24dd-/JJ	.	.
!LO:LB:g=original	!	!	!LO:LB:g=original	!	!
=191	=191	=191	=191	=191	=191
*ped	*	*	*	*	*
8CCC#X\L) 8FFF#X 8AAAn 8CCn	.	.	8An^/ 8f#X 8an	.	.
*	*	*	*	*	*above
!	!	!	!	!	!LO:HP:t=dim.
8EEn\ 8En	.	.	24En</LL	.	>
.	.	.	24en\	.	.
.	.	.	24a\JJ	.	.
8CC#X\ 8C#X	.	.	24C#X</LL	.	.
.	.	.	24c#X\	.	.
.	.	.	24a\JJ	.	.
8EE\J 8E	.	.	24E</LL	.	.
.	.	.	24e\	.	.
.	.	.	24a\JJ	.	.
=192	=192	=192	=192	=192	=192
8DDn\L 8Dn	.	.	24Dn</LL	.	.
.	.	.	24dn\	.	.
.	.	.	24a\JJ	.	.
*Xped	*	*	*	*	*
8BBBn\ 8BBn	.	.	24BBn</LL	.	.
.	.	.	24Bn\	.	.
.	.	.	24a\JJ	.	.
8DD\ 8D	.	.	24D</LL	.	.
.	.	.	24d\	.	.
.	.	.	24a\JJ	.	.
8CC#X\J 8C#X	.	.	24C#X</LL	.	.
.	.	.	24c#X\	.	.
.	.	.	24a\JJ	.	.
=193	=193	=193	=193	=193	=193
*	*	*	*clefF4	*	*
8FFF#X\L	.	.	24FFF#X</LL	.	.
.	.	.	24C#X\	.	.
.	.	.	24c#X\JJ	.	.
8AAA\	.	.	24AAA</LL	.	.
.	.	.	24C#\	.	.
.	.	.	24c#\JJ	.	.
8CC#X\	.	.	24CC#X</LL	.	.
.	.	.	24C#\	.	.
.	.	.	24c#\JJ	.	.
8EEE#X\J	.	.	24GGG#X</LL	.	.
.	.	.	24C#\	.	.
.	.	.	24c#\JJ	.	.
=194	=194	=194	=194	=194	=194
*	*below	*	*	*	*
8AAA\L	1	.	24AAA</LL	.	.
.	.	.	24C#X\	.	.
.	.	.	24c#X\JJ	.	.
8FFF#X\J	.	.	24FFF#X</LL	.	.
.	.	.	24C#\	.	.
.	.	.	24c#\JJ	.	.
8CCC#X/L	.	.	24r	.	.
.	.	.	24C#\LL	.	.
.	.	.	24c#\JJ	.	.
8CC#X/J	.	.	24r	.	.
.	.	.	24C#\LL	.	.
.	.	.	24c#\JJ	.	.
!LO:LB:g=original	!	!	!LO:LB:g=original	!	!
=195	=195	=195	=195	=195	=195
[2FFF\	.	.	24GGn</LL	.	.
!	!	!	!	!	!LO:DY:a
.	.	.	24C#X\	2	p
.	.	.	24A\JJ	.	.
.	.	.	24EE</LL	.	.
.	.	.	24C#\	.	.
.	.	.	24A\JJ	.	.
.	.	.	24FFn</LL	.	.
.	.	.	24D\	1	.
.	.	.	24A\JJ	.	.
.	.	.	24DD</LL	.	.
.	.	.	24D\	.	.
.	.	.	24A\JJ	.	.
=196	=196	=196	=196	=196	=196
4FFF\]	.	.	24CC#X<'/LL	.	.
.	.	.	24E\	.	.
.	.	.	24A\JJ	.	.
.	.	.	24EE<'/LL	.	.
.	.	.	24E\	.	.
.	.	.	24A\JJ	.	.
*ped	*	*	*	*	*
[4FFF\	.	.	24AAA</LL	.	.
.	.	.	24AA\	.	.
.	.	.	24A\JJ	.	.
.	.	.	24AA</LL	.	.
.	.	.	24AA\	.	.
.	.	.	24A\JJ	.	.
=197	=197	=197	=197	=197	=197
*Xped	*	*	*	*	*
2FFF\_	.	.	24GG</LL	.	.
.	.	.	24C#X\	2	.
.	.	.	24A\JJ	.	.
.	.	.	24EE</LL	.	.
.	.	.	24C#\	.	.
.	.	.	24A\JJ	.	.
.	.	.	24FF</LL	.	.
.	.	.	24D\	1	.
.	.	.	24B-X\JJ	.	.
.	.	.	24DD</LL	.	.
.	.	.	24D\	.	.
.	.	.	24A\JJ	.	.
=198	=198	=198	=198	=198	=198
4FFF\]	.	.	24CC#X<'/LL	.	.
.	.	.	24E\	.	.
.	.	.	24B-\JJ	.	.
.	.	.	24EE<'/LL	.	.
.	.	.	24E\	.	.
.	.	.	24A\JJ	.	.
*ped	*	*	*	*	*
4FFF\	.	.	24AAA</LL	.	.
.	.	.	24AA\	.	.
.	.	.	24A\JJ	.	.
.	.	.	24AA</LL	.	.
.	.	.	24AA\	.	.
.	.	.	24A\JJ	.	.
!LO:LB:g=original	!	!	!LO:LB:g=original	!	!
*Xped	*	*	*	*	*
=199	=199	=199	=199	=199	=199
2DD\	.	.	24DD</LL	.	.
.	.	.	24D\	.	pp
.	.	.	24d\JJ	.	.
.	3	.	24EE</LL	.	.
.	.	.	24D\	.	.
.	.	.	24d\JJ	.	.
.	1	.	24FF</LL	.	.
.	.	.	24D\	.	.
.	.	.	24d\JJ	.	.
.	.	.	24GG</LL	.	.
.	.	.	24D\	.	.
.	.	.	24d\JJ	.	.
=200	=200	=200	=200	=200	=200
*ped	*	*	*	*	*
4.AA-X\	3	.	24AA-X</LL	.	.
.	.	.	24D\	.	.
.	.	.	24d\JJ	.	.
.	1	.	24D</LL	.	.
.	.	.	24D\	.	.
.	.	.	24d\JJ	.	.
.	1	.	24D</LL	.	.
.	.	.	24D\	.	.
.	.	.	24d\JJ	.	.
*Xped	*	*	*	*	*
8GG\	4	.	24GG</LL	.	.
.	.	.	24D\	.	.
.	.	.	24d\JJ	.	.
=201	=201	=201	=201	=201	=201
2ryy	.	.	24FF#X</LL	.	.
.	5	.	24D\	.	.
.	.	.	24d\JJ	.	.
.	.	.	24GG</LL	.	.
.	.	.	24D\	.	.
.	.	.	24d\JJ	.	.
.	3	.	24GG#X</LL	.	.
.	.	.	24D\	.	.
.	.	.	24d\JJ	.	.
.	1	.	24AAn</LL	.	.
.	.	.	24D\	.	.
.	.	.	24d\JJ	.	.
=202	=202	=202	=202	=202	=202
*ped	*	*	*	*	*
4.BB-\	3	.	24BB-</LL	.	.
.	.	.	24D\	.	.
.	.	.	24d\JJ	.	.
.	.	.	24D</LL	.	.
.	.	.	24D\	.	.
.	.	.	24d\JJ	.	.
.	.	.	24D</LL	.	.
.	.	.	24D\	.	.
.	.	.	24d\JJ	.	.
8AA\	4	.	24AA</LL	.	.
.	.	.	24D\	.	.
.	.	.	24d\JJ	.	.
!LO:LB:g=original	!	!	!LO:LB:g=original	!	!
=203	=203	=203	=203	=203	=203
8GG#X\L	5	.	24GG#X</LL	.	.
!	!	!	!	!	!LO:DY:a
.	.	.	24D\	.	<
.	.	.	24d\JJ	.	.
8AA\	.	.	24AA</LL	.	.
.	.	.	24D\	.	.
.	.	.	24d\JJ	.	.
8BB-\	.	.	24BB-</LL	.	.
.	.	.	24D\	.	.
.	.	.	24d\JJ	.	.
8BBn\J	.	.	24BBn</LL	.	.
.	.	.	24D\	.	.
.	.	.	24d\JJ	.	[
=204	=204	=204	=204	=204	=204
*Xped	*	*	*	*	*
8Cn^\L	1	.	24Cn</LL	.	.
.	.	.	24E-X\	.	.
!	!	!	!	!	!LO:DY:a
.	.	.	24e-X\JJ	.	>
8BBn\	.	.	24BBn</LL	.	.
.	.	.	24E-\	.	.
.	.	.	24e-\JJ	.	.
8BB-X\	.	.	24BB-X</LL	.	.
.	.	.	24E-\	.	.
.	.	.	24e-\JJ	.	.
8AA\J	.	.	24AA</LL	.	]
.	.	.	24E-\	.	.
.	.	.	24e-\JJ	.	.
=205	=205	=205	=205	=205	=205
8BB-\L	.	.	24BB-</LL	.	.
.	.	.	24E-X\	.	.
.	.	.	24e-X\JJ	.	.
8C-X\	1	.	24C-X</LL	.	.
.	.	.	24E-\	.	.
.	.	.	24e-\JJ	.	.
8BB-\	.	.	24BB-</LL	.	.
.	.	.	24E-\	.	.
.	.	.	24e-\JJ	.	.
8AA\J	.	.	24AA</LL	.	.
.	.	.	24E-\	.	.
.	.	.	24e-\JJ	.	.
=206	=206	=206	=206	=206	=206
8GG#X\L	4	.	24GG#X</LL	.	.
.	.	.	24E-X\	.	.
.	.	.	24e-X\JJ	.	.
8AA\	1	.	24AA</LL	.	.
.	.	.	24E-\	.	.
.	.	.	24e-\JJ	.	.
8GG#\	.	.	24GG#</LL	.	.
.	.	.	24E-\	.	.
.	.	.	24e-\JJ	.	.
8GGn\J	.	.	24GGn</LL	.	.
.	.	.	24E-\	.	.
.	.	.	24e-\JJ	.	.
!LO:LB:g=original	!	!	!LO:LB:g=original	!	!
=207	=207	=207	=207	=207	=207
8FF#X^\L	4	.	24FF#X</LL	.	.
.	.	.	24D\	.	.
.	.	.	24d\JJ	.	.
8GG\	1	.	24GG</LL	.	.
.	.	.	24C#X\	.	.
.	.	.	24c#X\JJ	.	.
8FF#\	.	.	24FF#</LL	.	.
.	.	.	24D\	.	.
.	.	.	24d\JJ	.	.
8FFn\J	.	.	24FFn</LL	.	.
.	.	.	24BBn\	.	.
.	.	.	24Bn\JJ	.	.
=208	=208	=208	=208	=208	=208
8EEn^\L	4	.	24EEn</LL	.	.
.	.	.	24Cn\	.	.
.	.	.	24cn\JJ	.	.
8FF\	1	.	24FF</LL	.	.
.	.	.	24BBn\	.	.
.	.	.	24Bn\JJ	.	.
8EE\	.	.	24EE</LL	.	.
.	.	.	24C\	.	.
.	.	.	24c\JJ	.	.
8EE-X\J	.	.	24EE-X</LL	.	.
.	.	.	24AA\	.	.
.	.	.	24A\JJ	.	.
=209	=209	=209	=209	=209	=209
8DD^\L	4	.	24DD</LL	.	.
.	.	.	24BB-X\	.	.
.	.	.	24B-X\JJ	.	.
8EE-X\	2	.	24EE-X</LL	.	.
.	.	.	24AA\	.	.
.	.	.	24A\JJ	.	.
8DD\	3	.	24DD</LL	.	.
.	.	.	24BB-\	.	.
.	.	.	24B-\JJ	.	.
8DD-X\J	4	.	24DD-X</LL	.	.
.	.	.	24GG\	.	.
.	.	.	24G\JJ	.	.
=210	=210	=210	=210	=210	=210
8CC\L	1	.	24CC</LL	.	.
.	.	.	24AA-X\	.	.
.	.	.	24A-X\JJ	.	.
8CC-X\	2	.	24CC-X</LL	.	.
.	.	.	24FFn\	.	.
.	.	.	24Fn\JJ	.	.
8BBB-\	3	.	24BBB-</LL	.	.
.	.	.	24FF#X\	.	.
.	.	.	24F#X\JJ	.	.
8AAAn\J	1	.	24AAAn</LL	.	.
.	.	.	24DD#X\	.	.
.	.	.	24D#X\JJ	.	.
!LO:LB:g=original	!	!	!LO:LB:g=original	!	!
=211	=211	=211	=211	=211	=211
*ped	*	*	*	*	*
8EEEn\L 8GGG#X	.	.	8EEn^/ 8En	.	.
8BBBBn'\ 8BBBn	.	.	16BBBn</LL	3	.
.	.	.	16BBn\JJ	.	.
8EEE'\ 8EE	5	.	16EE</LL	5	.
*	*	*	*tuplet	*	*
.	.	.	16E\JJ	.	.
8GGG#\J	3	.	(24GGG</LL	.	.
.	.	.	24GG#X\	.	.
.	.	.	24G#X\JJ)	.	.
=212	=212	=212	=212	=212	=212
*	*	*	*Xtuplet	*	*
8BBBn\L	2	.	24BBBn</LL	.	.
.	.	.	24BBn\	.	.
.	.	.	24Bn\JJ	.	.
8EE\	1	.	24EE</LL	.	.
.	.	.	24E\	.	.
.	.	.	24e\JJ	.	.
8GG#X\	3	.	24GG#X</LL	.	.
.	.	.	24G#X\	.	.
.	.	.	24g#X\JJ	.	.
8BBn\J	.	.	24BB</LL	.	.
*	*	*	*clefG2	*	*
.	.	.	24B\	.	.
.	.	.	24bn\JJ	.	.
=213	=213	=213	=213	=213	=213
8E\L	.	.	24E</LL	.	.
.	.	.	24e\	.	.
.	.	.	24ee\JJ	.	.
8G#X\	.	.	24G#X</LL	.	.
.	.	.	24g#X\	.	.
.	.	.	24gg#X\JJ	.	.
8Bn\	.	.	24Bn</LL	.	.
.	.	.	24bn\	.	.
.	.	.	24bbn\JJ	.	.
*clefG2	*	*	*	*	*
8e\J	.	.	24e</LL	.	.
.	.	.	24ee\	.	.
.	.	.	24eee\JJ	.	.
=214	=214	=214	=214	=214	=214
8g#X\L	.	.	24g#X</LL	.	.
.	.	.	24gg#X\	.	.
.	.	.	24ggg#X\JJ	.	.
8bn\	.	.	24bn</LL	.	.
*	*	*	*8va	*	*
.	.	.	24bbn\	.	.
.	.	.	24bbbn\JJ	.	.
8ee\	.	.	24eee</LL	.	.
.	.	.	24eee\	.	.
.	.	.	24eeee\JJ	.	.
8gg#X\J	.	.	24ggg#</LL	.	.
.	.	.	24ggg#\	.	.
.	.	.	24gggg#X\JJ	.	.
!LO:PB:g=original	!	!	!LO:PB:g=original	!	!
=215	=215	=215	=215	=215	=215
8bbn\	.	.	8bbbn\	2	.
*	*	*	*X8va	*	*
8r	.	.	8r	.	.
*clefF4	*	*	*	*	*
8E\ 8G#X 8Bn 8e	.	.	8bn\ 8ee 8gg#X 8bbn	.	.
8r	.	.	8r	.	.
=216	=216	=216	=216	=216	=216
4r	.	.	4r	.	.
8EE/ 8GG#X 8BBn 8E	.	.	8bn\ 8ee 8gg#X 8bbn	.	.
8r	.	.	8r	.	.
=217	=217	=217	=217	=217	=217
4r	.	.	4r	.	.
8BBBn:/ 8EE: 8GGn: 8BBn:	.	.	8bn\ 8ee 8ggn 8bbn	.	.
8r	.	.	8r	.	.
=218	=218	=218	=218	=218	=218
*Xped	*	*	*	*	*
8BBB-X:/ 8EE: 8GG: 8BB-X:	.	.	8cc\ 8ee 8gg 8ccc	.	.
8r	.	.	8r	.	.
8AAA:/ 8EE: 8GG: 8AA:	1 1	.	8cc#X\ 8ee 8gg 8ccc#X	.	.
8r	.	.	8r	.	.
=219	=219	=219	=219	=219	=219
!	!	!	!LO:TX:a:i:t=ten.	!	!
!	!	!	!LO:TX:a:B:t=Con brio.	!	!
*ped	*	*	*	*	*
4DDDn/ 4FFFn 4AAA 4DDn	.	.	4ddn\ 4ffn 4aan 4dddn	.	.
*clefG2	*	*	*	*	*
*	*	*	*8va	*	*
4ryy	.	.	24aaa</LL	.	.
!	!	!	!	!	!LO:DY:a
.	1	.	24bb-X\ 24bbb-X	.	<
.	1	.	24aaa<\JJ	.	.
.	.	.	24gg#X/LL 24ggg#X	.	.
.	1	.	24aaa<\	.	.
.	.	.	24bb-\JJ 24bbb-	.	[
*	*	*	*X8va	*	*
=220	=220	=220	=220	=220	=220
2ryy	.	.	24aa<^/LL	.	.
.	1	.	24gg#X\ 24ggg#X	.	.
.	.	.	24ggn<\JJ	.	.
.	.	.	24ff#X/LL 24fff#X	.	.
.	3	.	24ffn<\	.	.
.	.	.	24ee\JJ 24eee	.	.
.	2	.	24ee-X</LL	.	.
.	.	.	24dd\ 24ddd	.	.
.	3	.	24cc#X<\JJ	.	.
.	.	.	24dd/LL 24ddd	.	.
.	2	.	24ee-<\	.	.
.	.	.	24dd\JJ 24ddd	.	.
!LO:LB:g=original	!	!	!LO:LB:g=original	!	!
=221	=221	=221	=221	=221	=221
2ryy	.	.	24cc#X<^/LL	.	.
.	3	.	24ccn\ 24cccn	.	.
.	1	.	24bn<\JJ	.	.
.	.	.	24b-X/LL 24bb-X	.	.
.	2	.	24a<\	.	.
.	.	.	24g#X/JJ 24gg#X	.	.
.	1	.	24a</LL	.	<
.	.	.	24b-\ 24bb-	.	.
.	1	.	24a</JJ	.	.
.	.	.	24g#/LL 24gg#	.	.
.	1	.	24a</	.	.
.	.	.	24b-\JJ 24bb-	.	[
=222	=222	=222	=222	=222	=222
2ryy	.	.	24a<^/LL	.	.
.	.	.	24g#X\ 24gg#X	.	.
.	.	.	24gn<\JJ	.	.
.	.	.	24f#X/LL 24ff#X	.	.
.	3	.	24fn</	.	.
.	.	.	24en/JJ 24een	.	.
*Xped	*	*	*	*	*
.	2	.	24e-X</LL	.	.
.	.	.	24d/ 24dd	.	.
.	.	.	24c#X</JJ	.	.
.	.	.	24d/LL 24dd	.	.
.	.	.	24e-</	.	.
.	.	.	24d/JJ 24dd	.	.
*clefF4	*	*	*	*	*
=223	=223	=223	=223	=223	=223
2ryy	.	.	24c#X<^\LL	.	.
.	.	.	24cn/ 24ccn	.	.
.	1	.	24Bn<\JJ	.	.
.	.	.	24B-X/LL 24b-X	.	.
.	2	.	24A</	.	.
.	.	.	24G#X/JJ 24g#X	.	.
.	1	.	24A<\LL	.	.
!	!	!	!	!	!LO:DY:a
.	.	.	24B-/ 24b-	.	<
.	1	.	24A<\JJ	.	.
.	.	.	24G#/LL 24g#	.	.
.	1	.	24A<\	.	.
.	.	.	24B-/JJ 24b-	.	[
!LO:LB:g=original	!	!	!LO:LB:g=original	!	!
=224	=224	=224	=224	=224	=224
2ryy	.	.	24A<^\LL	.	.
.	.	.	24G#X/ 24g#X	.	.
.	.	.	24Gn<\JJ	.	.
*	*	*	*clefF4	*	*
.	.	.	24F#X\LL 24f#X	.	.
.	.	.	24Fn</	.	.
.	.	.	24En\JJ 24en	.	.
.	.	.	24E-X</LL	.	.
.	.	.	24D\ 24d	.	.
.	.	.	24C#X</JJ	.	.
.	.	.	24D\LL 24d	.	.
.	.	.	24E-</	.	.
.	.	.	24D\JJ 24d	.	.
=225	=225	=225	=225	=225	=225
2ryy	.	.	24C#X<^/LL	.	.
.	.	.	24Cn\ 24cn	.	.
.	1	.	24BBn</JJ	.	.
.	.	.	24BB-X\LL 24B-X	.	.
.	2	.	24AA</	.	.
.	.	.	24GG#X\JJ 24G#X	.	.
.	1	.	24AA</LL	.	<
.	.	.	24BB-\ 24B-	.	.
.	1	.	24AA</JJ	.	.
.	.	.	24GG#\LL 24G#	.	.
.	1	.	24AA</	.	.
.	.	.	24BB-\JJ 24B-	.	[
=226	=226	=226	=226	=226	=226
2ryy	.	.	24GGn<^\LL	.	.
.	2	.	24GG#X/ 24G#X	.	.
.	1	.	24AA<\JJ	.	.
.	.	.	24BB-/LL 24B-	.	.
.	3	.	24FF<\	.	.
.	.	.	24GG#/JJ 24G#	.	.
.	1	.	24AA<^\LL	.	.
.	.	.	24BB-/ 24B-	.	.
.	5	.	24DD<\JJ	.	.
.	.	.	24GG#\LL 24G#	.	.
.	1	.	24AA</	.	.
.	.	.	24BB-\JJ 24B-	.	.
!LO:LB:g=original	!	!	!LO:LB:g=original	!	!
=227	=227	=227	=227	=227	=227
*ped	*	*	*	*	*
2ryy	.	.	24AAA<^\LL 24AA<	.	.
.	.	.	24BB-/ 24B-	.	.
.	.	.	24BBBn<\JJ 24BBn<	.	.
.	.	.	24C/LL 24c	.	.
.	.	.	24CC#X<\ 24C#X<	.	.
.	.	.	24D/JJ 24d	.	.
.	.	.	24DD#X</LL 24D#X<	.	.
.	.	.	24En\ 24en	.	.
.	.	.	24FF</JJ 24F<	.	.
.	.	.	24F#X\LL 24f#X	.	.
.	.	.	24GGn< 24Gn<	.	.
.	.	.	24G#X\JJ 24g#X	.	.
*	*	*	*clefG2	*	*
=228	=228	=228	=228	=228	=228
2ryy	.	.	24AA<LL 24A<	.	.
.	.	.	24B-X/ 24b-X	.	.
.	.	.	24BBn<\JJ 24Bn<	.	.
.	.	.	24cn/LL 24ccn	.	.
.	.	.	24C#X<\ 24c#X<	.	.
.	.	.	24dn/JJ 24ddn	.	.
.	.	.	24D#X<\LL 24d#X<	.	.
.	.	.	24e/ 24ee	.	.
.	.	.	24Fn<\JJ 24fn<	.	.
.	.	.	24f#X/LL 24ff#X	.	.
.	.	.	24Gn<\ 24gn<	.	.
.	.	.	24g#X/JJ 24gg#X	.	.
*clefG2	*	*	*	*	*
=229	=229	=229	=229	=229	=229
2ryy	.	.	24A</LL 24a<	.	.
.	.	.	24b-X/ 24bb-X	.	.
.	.	.	24Bn</JJ 24bn<	.	.
.	.	.	24ccn\LL 24cccn	.	.
.	.	.	24c#X</ 24cc#X<	.	.
.	.	.	24ddn\JJ 24dddn	.	.
.	.	.	24d#X</LL 24dd#X<	.	.
.	.	.	24ee\ 24eee	.	.
.	.	.	24fn</JJ 24ffn<	.	.
.	.	.	24ff#X\LL 24fff#X	.	.
.	.	.	24gn</ 24ggn<	.	.
.	.	.	24gg#X\JJ 24ggg#X	.	.
!LO:LB:g=original	!	!	!LO:LB:g=original	!	!
=230	=230	=230	=230	=230	=230
4a\ 4aa	.	.	4r	.	.
*clefF4	*	*	*	*	*
4AA\ 4C#X 4E 4A	.	.	4a\ 4cc#X 4ee 4aa	.	.
*Xped	*	*	*	*	*
=231	=231	=231	=231	=231	=231
*ped	*	*	*8va	*	*
8DDD/ 8AAA 8DD	.	.	8ddd\ 8fff#X 8dddd	.	.
*	*	*	*X8va	*	*
8r	.	.	8r	.	.
8D\ 8E 8G 8B- 8d 8e	.	.	8b-\ 8cc#X 8ee 8bb-	1 1	.
8r	.	.	8r	.	.
=232	=232	=232	=232	=232	=232
*	*	*	*8va	*	*
8DDD/ 8AAA 8DD	.	.	8ddd\ 8fff#X 8dddd	.	.
*	*	*	*X8va	*	*
8r	.	.	8r	.	.
8D\ 8E 8G 8B- 8d 8e	.	.	8b-\ 8cc#X 8ee 8bb-	1 1	.
8r	.	.	8r	.	.
=233	=233	=233	=233	=233	=233
*	*	*	*8va	*	*
8DDD/ 8AAA 8DD	.	.	8ddd\ 8fff#X 8dddd	.	.
*	*	*	*X8va	*	*
8r	.	.	8r	.	.
4r	.	.	4r	.	.
=234	=234	=234	=234	=234	=234
8D\ 8E 8G 8B- 8d 8e	.	.	8b-\ 8cc#X 8ee 8bb-	1 1	.
8r	.	.	8r	.	.
4r	.	.	4r	.	.
*Xped	*	*	*	*	*
=235	=235	=235	=235	=235	=235
*ped	*	*	*8va	*	*below
!	!	!	!LO:TX:b:i:t=rit.	!	!
8DDD/ 8AAA 8DD	.	.	8fff#X\ 8aaa 8ffff#X	.	sf f f
*	*	*	*X8va	*	*
8r	.	.	8r	.	.
4r	.	.	4r	.	.
=236	=236	=236	=236	=236	=236
8A\ 8d 8f#X 8a	.	.	8dd\ 8ff#X 8aa 8ddd	.	.
8r	.	.	8r	.	.
4r	.	.	4r	.	.
=237	=237	=237	=237	=237	=237
8qDDD;\ 8qFFF#X 8qAAA 8qDD	.	.	8qD;/ 8qF#X 8qA 8qd	.	.
2DDD;\ 2FFF# 2AAA 2DD	.	.	2D;/ 2F# 2A 2d	.	.
*	*	*	*	*	*
==	==	==	==	==	==
*-	*-	*-	*-	*-	*-
!!!RDF**kern: > = above
!!!RDF**kern: < = below
!!!system-decoration: [(s1,s2)]
!!!ENC: Solarz Mateusz
!!!END: 2022-07-19
!!!ENC: Julita Ruszuk
!!!END: 2022-08-20
!!!YEC: Copyright 2022 Narodowy Instytut Fryderyka Chopina (https://polishscores.org)
!!!YEM: License CC-BY-4.0 (https://creativecommons.org/licenses/by/4.0)
